!!!!SEGMENT: pl-kk--kk-i-472--005-pc1_righini-vincenzo--missa-solemnis-agnus-pc1.krn
!!!cenid: 17xx:1884b
!!!COM: Righini, Vincenzo
!!!COM-rismid: pe333493
!!!CDT: 1756/01/22-1812/08/19
!!!CNT: Italian
!!!OPR: Missa solemnis
!!!OTL: Agnus
!!!OMV: 005
!!!PDT:
!!!AGN: Sacred; Mass
!!!SMS-siglum: PL-Kk
!!!SMS-shelfmark: Kk.I.472
!!!SMS-shelfwork: 001-005 M
!!!SMS-variant:
!!!SMS-altvar:
!!!NIFC-rismid: 1001139998
!!!URL-scan: http://repozytorium.nifc.pl/skany/pl-kk-nut--i-472
!!!ONB-nifc: UWAGA: części Mszy: 1. Kyrie, 2. Gloria, 3. Credo, 4. Sanctus, 5. Agnus, 6. Dona
!!!AIN: 1 alto 2 clars 2 empty 1 organ 1 tenor 1 viola 2 violn 1 vox
!!!key:
**kern	**fb	**dynam	**kern	**dynam	**kern	**dynam	**kern	**dynam	**kern	**text	**kern	**text	**dynam	**kern	**text	**dynam	**kern	**text	**dynam	**kern	**dynam	**kern	**dynam	**kern	**dynam
*part11	*	*part11	*part10	*part10	*part9	*part9	*part8	*part8	*part7	*part7	*part6	*part6	*part6	*part5	*part5	*part5	*part4	*part4	*part4	*part3	*part3	*part2	*part2	*part1	*part1
*group	*	*group	*group3	*group3	*group3	*group3	*group3	*group3	*group2	*group2	*group2	*group2	*group2	*group2	*group2	*group2	*group2	*group2	*group2	*group	*group	*group1	*group1	*group1	*group1
*staff11	*	*	*staff10	*	*staff9	*	*staff8	*	*staff7	*staff7	*staff6	*staff6	*	*staff5	*staff5	*	*staff4	*staff4	*	*staff3	*	*staff2	*	*staff1	*
*Iorgan	*	*	*Iviola	*	*Ivioln	*	*Ivioln	*	*Iempty	*	*Itenor	*	*	*Ialto	*	*	*Ivox	*	*	*Iempty	*	*Iclars	*	*Iclars	*
*I"Organo.	*	*	*I"Viola di Alto.	*	*I"Violino II:do	*	*I"Violino Imo	*	*I"Baſso.	*	*I"Tenore.	*	*	*I"Alto.	*	*	*I"Canto.	*	*	*I"Cornu Primo in D.	*	*I"Clarinetto IIdo: in C:	*	*I"Clarinetto Imo in C.	*
*I'org	*	*	*I'a-vla	*	*I'vl 2	*	*I'vl 1	*	*I'B	*	*I'T	*	*	*I'A	*	*	*I'S	*	*	*I'cor in D	*	*I'cl in C 2	*	*I'cl in C 1	*
*clefF4	*	*	*clefC3	*	*clefG2	*	*clefG2	*	*clefF4	*	*clefC4	*	*	*clefC3	*	*	*clefC1	*	*	*clefG2	*	*clefG2	*	*clefG2	*
*	*	*	*	*	*	*	*	*	*	*	*	*	*	*	*	*	*	*	*	*ITrd6c10	*	*	*	*	*
*k[b-]	*	*	*k[b-]	*	*k[b-]	*	*k[b-]	*	*k[b-]	*	*k[b-]	*	*	*k[b-]	*	*	*k[b-]	*	*	*k[f#c#]	*	*k[b-]	*	*k[b-]	*
*d:	*	*	*d:	*	*d:	*	*d:	*	*d:	*	*d:	*	*	*d:	*	*	*d:	*	*	*d:	*	*d:	*	*d:	*
*M2/2	*	*	*M2/2	*	*M2/2	*	*M2/2	*	*M2/2	*	*M2/2	*	*	*M2/2	*	*	*M2/2	*	*	*M2/2	*	*M2/2	*	*M2/2	*
*met(c|)	*	*	*met(c|)	*	*met(c|)	*	*met(c|)	*	*met(c|)	*	*met(c|)	*	*	*met(c|)	*	*	*met(c|)	*	*	*met(c|)	*	*met(c|)	*	*met(c|)	*
=1	=1	=1	=1	=1	=1	=1	=1	=1	=1	=1	=1	=1	=1	=1	=1	=1	=1	=1	=1	=1	=1	=1	=1	=1	=1
*	*above	*	*	*	*	*	*	*	*	*	*	*	*	*	*	*	*	*	*	*	*	*	*	*	*
*2\right	*	*	*2\right	*	*2\right	*	*2\right	*	*2\right	*	*2\right	*	*	*2\right	*	*	*2\right	*	*	*2\right	*	*2\right	*	*2\right	*
!	!	!	!	!	!	!	!	!	!	!	!LO:TX:b:i:t=18.	!	!	!	!	!	!	!	!	!	!	!	!	!	!
!	!	!	!LO:TX:a:t=P:problem=w źródle "Agnus" zapisane przed pierwszym taktem, na pięciolinii	!	!LO:TX:a:t=P:problem=w źródle "Agnus" zapisane przed pierwszym taktem, na pięciolinii	!	!	!	!	!	!	!	!	!	!	!	!	!	!	!	!	!	!	!	!
!LO:TX:b:t=Agnus.	!	!	!LO:TX:b:i:t=Agnus	!	!LO:TX:b:B:i:t=Agnus	!	!LO:TX:b:t=Agnus.	!	!	!	!LO:TX:b:t=Agnus.	!	!	!LO:TX:b:t=Agnus	!	!	!LO:TX:b:t=Agnus.	!	!	!LO:TX:a:t=4.	!	!LO:TX:a:t=4	!	!	!
!	!	!	!	!	!	!	!	!	!	!	!	!	!	!	!	!	!	!	!	!LO:TX:a:t=P:problem=w źródle "Agnus" zapisane przed pierwszym taktem, na pięciolinii	!	!LO:TX:a:t=P::problem=w źródle "Agnus&colon;" zapisane przed pierwszym taktem, na pięciolinii	!	!LO:TX:a:t=P::problem=w źródle "Agnus&colon;" zapisane przed pierwszym taktem, na pięciolinii	!
!	!	!	!	!	!	!	!	!	!	!	!	!	!	!	!	!	!	!	!	!LO:TX:b:t=Agnus&colon;	!	!LO:TX:b:i:t=Agnus	!	!LO:TX:b:t=Agnus&colon;	!
!LO:TX:a:i:t=Largo.	!	!	!	!	!	!	!	!	!	!	!	!	!	!	!	!	!	!	!	!	!	!	!	!	!
!LO:TX:a:t=Solo.	!	!	!LO:TX:a:i:t=Largo	!	!LO:TX:a:i:t=Largo.	!	!LO:TX:a:i:t=Largo.	!LO:DY:a	!LO:TX:a:i:t=Largo	!	!LO:TX:a:i:t=Largo.	!	!	!LO:TX:a:i:t=Largo.	!	!	!LO:TX:a:i:t=Largo.	!	!	!LO:TX:a:i:t=Largo&colon;	!	!LO:TX:a:i:t=Largo&colon;	!	!LO:TX:a:i:t=Largo	!
!	!	!	!	!	!	!	!	!	!	!	!	!	!	!	!	!	!LO:TX:a:t=P:problem=w źródle zarówno "Largo." jak i "Agnus." zapisane przed pierwszym taktem, na pięciolinii	!	!	!	!	!	!	!	!
!	!	!	!	!	!	!	!	!	!	!	!	!	!	!LO:TX:a:t=P:problem=w źródle zarówno "Largo." jak i "Agnus." zapisane przed pierwszym taktem, "Largo." nad pięciolinią, a "Agnus." na pięciolinii	!	!	!	!	!	!	!	!	!	!	!
!LO:TX:a:t=P:problem=w źródle zarówno "Largo." jak i "Agnus." zapisane przed pierwszym taktem, "Largo." nad pięciolinią, a "Agnus." na pięciolinii	!	!	!	!	!	!	!	!	!	!	!LO:TX:a:t=P:problem=w źródle zarówno "Largo." jak i "Agnus." zapisane przed pierwszym taktem, "Largo." nad pięciolinią, a "Agnus." na pięciolinii	!	!	!	!	!	!	!	!	!	!	!	!	!	!
!	!	!	!	!	!	!	!LO:TX:a:t=P:problem=w źródle zarówno "Largo." jak i "Agnus." zapisane przed pierwszym taktem, "Largo." nad pięciolinią, a "Agnus." na pięciolinii	!	!	!	!	!	!	!	!	!	!	!	!	!	!	!	!	!	!
!	!	!LO:DY:b:t=for&colon;	!	!	!	!LO:DY:b:t=fo	!	!LO:DY:a:t=for.	!	!	!	!	!	!	!	!	!	!	!	!	!	!	!	!	!
!	!	!	!	!	!	!	!	!	!	!	!	!	!	!	!	!	!LO:TX:a:t=18	!	!	!	!	!	!	!	!
2D\	X n	f	2F/	.	4d/	f	4d/	f	00r	.	00r	.	.	00r	.	.	00r	.	.	00r	.	00r	.	1r	.
.	.	.	.	.	2d/	.	2d/	.	.	.	.	.	.	.	.	.	.	.	.	.	.	.	.	.	.
2E\	X 7	.	2G/	.	.	.	.	.	.	.	.	.	.	.	.	.	.	.	.	.	.	.	.	.	.
.	.	.	.	.	4d/	.	4d/	.	.	.	.	.	.	.	.	.	.	.	.	.	.	.	.	.	.
=2	=2	=2	=2	=2	=2	=2	=2	=2	=2	=2	=2	=2	=2	=2	=2	=2	=2	=2	=2	=2	=2	=2	=2	=2	=2
!	!	!	!	!	!	!	!	!	!	!	!	!	!	!	!	!	!	!	!	!	!	!	!	!LO:TX:a:i:t=Solo.	!
2F\	X 6	.	2A/	.	8d/L	.	8d/L	.	.	.	.	.	.	.	.	.	.	.	.	.	.	.	.	8r	.
!	!	!	!	!	!	!LO:DY:b:t=po.	!	!LO:DY:b:t=po.	!	!	!	!	!	!	!	!	!	!	!	!	!	!	!	!	!
.	.	.	.	.	8a/	p	8a/	p	.	.	.	.	.	.	.	.	.	.	.	.	.	.	.	8aa'\L	.
.	.	.	.	.	8a/	.	8a/	.	.	.	.	.	.	.	.	.	.	.	.	.	.	.	.	8aa'\	.
.	.	.	.	.	8a/J	.	8a/J	.	.	.	.	.	.	.	.	.	.	.	.	.	.	.	.	8aa'\J	.
2r	.	.	2r	.	8g/L	.	(<8g/L	.	.	.	.	.	.	.	.	.	.	.	.	.	.	.	.	(>8gg\L	.
.	.	.	.	.	8f/	.	8f/	.	.	.	.	.	.	.	.	.	.	.	.	.	.	.	.	8ff\	.
.	.	.	.	.	8e/	.	8e/	.	.	.	.	.	.	.	.	.	.	.	.	.	.	.	.	8ee\	.
.	.	.	.	.	8d/J	.	8d/J)	.	.	.	.	.	.	.	.	.	.	.	.	.	.	.	.	8dd\J)	.
=3	=3	=3	=3	=3	=3	=3	=3	=3	=3	=3	=3	=3	=3	=3	=3	=3	=3	=3	=3	=3	=3	=3	=3	=3	=3
!	!	!	!	!	!	!LO:DY:a:t=fo	!	!LO:DY:a:t=for.	!	!	!	!	!	!	!	!	!	!	!	!	!	!	!	!	!
2E\	6/_ 3	.	2G/	.	4c#X/	f	4c#X/	f	.	.	.	.	.	.	.	.	.	.	.	.	.	.	.	4cc#X\	.
.	.	.	.	.	2c#/	.	2c#/	.	.	.	.	.	.	.	.	.	.	.	.	.	.	.	.	4r	.
2F\	X 3	.	2A/	.	.	.	.	.	.	.	.	.	.	.	.	.	.	.	.	.	.	.	.	2r	.
.	.	.	.	.	4c#/	.	4c#/	.	.	.	.	.	.	.	.	.	.	.	.	.	.	.	.	.	.
=4	=4	=4	=4	=4	=4	=4	=4	=4	=4	=4	=4	=4	=4	=4	=4	=4	=4	=4	=4	=4	=4	=4	=4	=4	=4
!	!	!	!	!	!LO:TX:t=P:problem=mixed beam	!LO:DY:a:t=po	!LO:TX:t=P:problem=mixed beam	!LO:DY:a:t=po.	!	!	!	!	!	!	!	!	!	!	!	!	!	!	!	!	!
2G\	X -	.	2B-/	.	8c/L	p	8c/L	p	.	.	.	.	.	.	.	.	.	.	.	.	.	.	.	8r	.
.	.	.	.	.	8b-\	.	8b-\	.	.	.	.	.	.	.	.	.	.	.	.	.	.	.	.	8bb-'\L	.
.	.	.	.	.	8b-\	.	8b-\	.	.	.	.	.	.	.	.	.	.	.	.	.	.	.	.	8bb-'\	.
.	.	.	.	.	8b-\J	.	8b-\J	.	.	.	.	.	.	.	.	.	.	.	.	.	.	.	.	8bb-'\J	.
4r	.	.	4r	.	8a/L	.	(<8a/L	.	.	.	.	.	.	.	.	.	.	.	.	.	.	.	.	(>8aa\L	.
.	.	.	.	.	8g/	.	8g/	.	.	.	.	.	.	.	.	.	.	.	.	.	.	.	.	8gg\	.
4G\	4/ -	.	4B-/	.	8f/	.	8f/	.	.	.	.	.	.	.	.	.	.	.	.	.	.	.	.	8ff\	.
.	.	.	.	.	8e/J	.	8e/J)	.	.	.	.	.	.	.	.	.	.	.	.	.	.	.	.	8ee\J)	.
=5	=5	=5	=5	=5	=5	=5	=5	=5	=5	=5	=5	=5	=5	=5	=5	=5	=5	=5	=5	=5	=5	=5	=5	=5	=5
!	!	!	!	!	!	!	!	!	!	!	!	!	!	!	!	!	!	!	!	!	!LO:DY:a:t=for&colon;	!	!	!	!
4F\	X 6	.	4A/	.	4d/	.	4d/	.	00r	.	00r	.	.	00r	.	.	00r	.	.	4r	f	2r	.	4dd\	.
4r	.	.	4r	.	4r	.	4r	.	.	.	.	.	.	.	.	.	.	.	.	8.d\L	.	.	.	4r	.
.	.	.	.	.	.	.	.	.	.	.	.	.	.	.	.	.	.	.	.	16d\Jk	.	.	.	.	.
4r	.	.	4r	.	4r	.	4r	.	.	.	.	.	.	.	.	.	.	.	.	2d\	.	4r	.	4r	.
*	*	*	*	*	*	*	*custos:cc	*	*	*	*	*	*	*	*	*	*	*	*	*	*	*	*	*	*
!	!	!	!	!	!	!	!LO:LB:g=original	!	!	!	!	!	!	!	!	!	!	!	!	!	!	!	!	!	!
!	!	!	!	!LO:DY:b	!	!	!	!	!	!	!	!	!	!	!	!	!	!	!	!	!	!	!	!	!
4F#X\	X 5n	.	4d\	fp	4a/	.	4cc\	.	.	.	.	.	.	.	.	.	.	.	.	.	.	(<4aa\	.	4ccc\	.
!	!	!	!	!	!LO:LB:g=original	!	!	!	!	!	!	!	!	!	!	!	!	!	!	!	!	!	!	!	!
=6	=6	=6	=6	=6	=6	=6	=6	=6	=6	=6	=6	=6	=6	=6	=6	=6	=6	=6	=6	=6	=6	=6	=6	=6	=6
4G\	.	.	4d\	.	4g/	.	4b-/	.	.	.	.	.	.	.	.	.	.	.	.	4r	.	4gg\)	.	4bb-\	.
4r	.	.	4r	.	4r	.	4r	.	.	.	.	.	.	.	.	.	.	.	.	8.d\L	.	4r	.	4r	.
.	.	.	.	.	.	.	.	.	.	.	.	.	.	.	.	.	.	.	.	16d\Jk	.	.	.	.	.
!	!	!	!	!	!	!	!	!	!	!	!	!	!	!	!	!	!	!	!	!	!	!	!	!LO:LB:g=original	!
4r	.	.	4r	.	4r	.	4r	.	.	.	.	.	.	.	.	.	.	.	.	2d\	.	4r	.	4r	.
4GG/	.	.	4d\	.	(<4g/	.	4b-/	.	.	.	.	.	.	.	.	.	.	.	.	.	.	(<4gg\	.	4bb-\	.
!LO:LB:g=original	!	!	!	!	!	!	!	!	!	!	!	!	!	!	!	!	!	!	!	!	!	!	!	!	!
=7	=7	=7	=7	=7	=7	=7	=7	=7	=7	=7	=7	=7	=7	=7	=7	=7	=7	=7	=7	=7	=7	=7	=7	=7	=7
4AA/	6 4	.	4d\	.	4f/)	.	4a/	.	.	.	.	.	.	.	.	.	.	.	.	4r	.	4ff\)	.	4aa\	.
4r	.	.	4r	.	4r	.	4r	.	.	.	.	.	.	.	.	.	.	.	.	8.d\L	.	4r	.	4r	.
.	.	.	.	.	.	.	.	.	.	.	.	.	.	.	.	.	.	.	.	16d\Jk	.	.	.	.	.
4r	.	.	4r	.	4r	.	4r	.	.	.	.	.	.	.	.	.	.	.	.	2d\	.	4r	.	4r	.
4AA/	X #	.	4d\	.	4f/	.	4a/	.	.	.	.	.	.	.	.	.	.	.	.	.	.	4dd\	.	4aa\	.
=8	=8	=8	=8	=8	=8	=8	=8	=8	=8	=8	=8	=8	=8	=8	=8	=8	=8	=8	=8	=8	=8	=8	=8	=8	=8
*	*	*	*	*	*	*	*	*	*	*	*	*	*	*	*	*	*	*	*	*	*	*	*	*2\right	*
!	!	!	!	!	!	!LO:DY:a:t=fo	!	!	!	!	!	!	!	!	!	!	!	!	!	!	!	!	!	!LO:TX:t=P:problem=2\right&colon; global	!
!	!	!	!	!	!	!	!	!LO:DY:b:t=fp&colon;	!	!	!	!	!	!	!	!	!	!	!	!	!	!	!	!	!
!	!	!	!	!LO:DY:b:t=fo	!	!	!	!	!	!	!	!	!	!	!	!	!	!	!	!	!	!	!	!	!
!	!	!	!	!	!	!	!	!	!	!	!	!	!	!	!	!	!	!	!	!	!	!	!LO:DY:b:t=fo	!	!
2BBn/	X 6/	.	2Bn/	f	2d/	f	2g#X/	fp	.	.	.	.	.	.	.	.	.	.	.	4r	.	2dd\	f	2gg#X\	.
.	.	.	.	.	.	.	.	.	.	.	.	.	.	.	.	.	.	.	.	4d\	.	.	.	.	.
!	!	!	!	!	!	!	!	!LO:DY:b:t=fp&colon;	!	!	!	!	!	!	!	!	!	!	!	!	!	!	!	!	!
2BB-X/	X 6n	.	2B-X/	.	2d/	.	2gn/	fp	.	.	.	.	.	.	.	.	.	.	.	4r	.	2dd\	.	2ggn\	.
.	.	.	.	.	.	.	.	.	.	.	.	.	.	.	.	.	.	.	.	4d\	.	.	.	.	.
!	!	!	!LO:LB:g=original	!	!	!	!	!	!	!	!	!	!	!	!	!	!	!	!	!	!	!	!	!	!
=9	=9	=9	=9	=9	=9	=9	=9	=9	=9	=9	=9	=9	=9	=9	=9	=9	=9	=9	=9	=9	=9	=9	=9	=9	=9
!	!	!	!	!	!	!LO:DY:a:t=po&colon;	!	!	!	!	!	!	!	!	!	!	!	!	!	!	!	!	!	!	!
!	!	!	!	!	!	!	!	!LO:DY:b:t=fp	!	!	!	!	!	!	!	!	!	!	!	!	!	!	!	!	!
!	!	!	!	!	!	!	!	!	!	!	!	!	!	!	!	!	!	!	!	!	!	!	!LO:DY:b:t=po	!	!
2AA/	6 4	.	2A/	.	2d/	p	2f#X/	fp	0r	.	00r	.	.	00r	.	.	00r	.	.	4r	.	2dd\	p	2ff#X\	.
.	.	.	.	.	.	.	.	.	.	.	.	.	.	.	.	.	.	.	.	4d\	.	.	.	.	.
!	!	!	!	!LO:DY:b	!	!	!	!LO:DY:b:t=fp.	!	!	!	!	!	!	!	!	!	!	!	!	!	!	!	!	!
!	!	!	!	!	!	!	!	!	!	!	!	!	!	!	!	!	!	!	!	!LO:LB:g=original	!	!	!	!	!
2GG#X/	X 7n	.	2Bn/	p	2d/	.	2fn/	fp	.	.	.	.	.	.	.	.	.	.	.	4r	.	2dd\	.	2ffn\	.
.	.	.	.	.	.	.	.	.	.	.	.	.	.	.	.	.	.	.	.	4d\	.	.	.	.	.
!	!	!	!	!	!	!	!	!	!	!	!	!	!	!	!	!	!	!	!	!	!	!LO:LB:g=original	!	!	!
=10	=10	=10	=10	=10	=10	=10	=10	=10	=10	=10	=10	=10	=10	=10	=10	=10	=10	=10	=10	=10	=10	=10	=10	=10	=10
1AA	X 4	.	(<2.A/	.	4d/	.	1e	.	.	.	.	.	.	.	.	.	.	.	.	1A	.	4dd\	.	1ee	.
.	X 3	.	.	.	8c#X/L	.	.	.	.	.	.	.	.	.	.	.	.	.	.	.	.	8cc#X\L	.	.	.
.	.	.	.	.	8Bn/J	.	.	.	.	.	.	.	.	.	.	.	.	.	.	.	.	8bn\J	.	.	.
.	.	.	.	.	2c#/	.	.	.	.	.	.	.	.	.	.	.	.	.	.	.	.	2cc#\	.	.	.
.	.	.	4G/)	.	.	.	.	.	.	.	.	.	.	.	.	.	.	.	.	.	.	.	.	.	.
=11	=11	=11	=11	=11	=11	=11	=11	=11	=11	=11	=11	=11	=11	=11	=11	=11	=11	=11	=11	=11	=11	=11	=11	=11	=11
!	!	!	!	!	!	!	!	!	!LO:TX:t=P:problem=2\right&colon; global	!	!	!	!	!	!	!	!	!	!	!	!	!	!	!	!
!	!	!	!	!	!	!	!	!	!LO:TX:a:i:t=Solo.	!	!	!	!	!	!	!	!	!	!	!	!	!	!	!	!
4DD/	.	.	4F/	.	4d/	.	4d/	.	2.A\	A-	.	.	.	.	.	.	.	.	.	4d\	.	4dd\	.	4dd\	.
4r	.	.	4A/	.	4d/	.	4f/	.	.	.	.	.	.	.	.	.	.	.	.	4r	.	4r	.	4r	.
2r	.	.	4A/	.	4d/	.	4f/	.	.	.	.	.	.	.	.	.	.	.	.	2r	.	2r	.	2r	.
.	.	.	4A/	.	4d/	.	4f/	.	8G\L	-gnus	.	.	.	.	.	.	.	.	.	.	.	.	.	.	.
.	.	.	.	.	.	.	.	.	8E\J	.	.	.	.	.	.	.	.	.	.	.	.	.	.	.	.
=12	=12	=12	=12	=12	=12	=12	=12	=12	=12	=12	=12	=12	=12	=12	=12	=12	=12	=12	=12	=12	=12	=12	=12	=12	=12
!	!	!	!	!	!	!	!	!	!	!	!	!	!	!	!	!	!	!	!	!LO:TX:a:t=6.	!	!	!	!	!
.	.	.	.	.	.	.	.	.	8qqE/	.	.	.	.	.	.	.	.	.	.	.	.	.	.	.	.
1F	X 6	.	4r	.	4r	.	4r	.	4D/	de-	.	.	.	.	.	.	.	.	.	00r	.	00r	.	8r	.
.	.	.	.	.	.	.	.	.	.	.	.	.	.	.	.	.	.	.	.	.	.	.	.	(<32qqff/LLL	.
.	.	.	.	.	.	.	.	.	.	.	.	.	.	.	.	.	.	.	.	.	.	.	.	32qqee/	.
.	.	.	.	.	.	.	.	.	.	.	.	.	.	.	.	.	.	.	.	.	.	.	.	32qqdd/	.
.	.	.	.	.	.	.	.	.	.	.	.	.	.	.	.	.	.	.	.	.	.	.	.	32qqcc#X/JJJ)	.
.	.	.	.	.	.	.	.	.	.	.	.	.	.	.	.	.	.	.	.	.	.	.	.	(>8dd\L	.
.	.	.	4A/	.	4d/	.	4d/	.	4D/	-i	.	.	.	.	.	.	.	.	.	.	.	.	.	8ff\	.
.	.	.	.	.	.	.	.	.	.	.	.	.	.	.	.	.	.	.	.	.	.	.	.	8cc#\J)	.
.	.	.	4A/	.	4d/	.	4d/	.	4r	.	.	.	.	.	.	.	.	.	.	.	.	.	.	(>8dd\L	.
.	.	.	.	.	.	.	.	.	.	.	.	.	.	.	.	.	.	.	.	.	.	.	.	8a\	.
.	.	.	4A/	.	4d/	.	4d/	.	4D/	qui	.	.	.	.	.	.	.	.	.	.	.	.	.	8b-\	.
.	.	.	.	.	.	.	.	.	.	.	.	.	.	.	.	.	.	.	.	.	.	.	.	8f#X\J)	.
=13	=13	=13	=13	=13	=13	=13	=13	=13	=13	=13	=13	=13	=13	=13	=13	=13	=13	=13	=13	=13	=13	=13	=13	=13	=13
4E\	6/ 5-	.	4r	.	4r	.	4r	.	2B-\	tol-	00r	.	.	00r	.	.	00r	.	.	.	.	.	.	4g/	.
4r	.	.	4B-/	.	4c#X/	.	4g/	.	.	.	.	.	.	.	.	.	.	.	.	.	.	.	.	4r	.
!	!	!	!	!	!LO:LB:g=original	!	!	!	!	!	!	!	!	!	!	!	!	!	!	!	!	!	!	!	!
2r	.	.	4B-/	.	4c#/	.	4g/	.	8A\L	-lis	.	.	.	.	.	.	.	.	.	.	.	.	.	2r	.
.	.	.	.	.	.	.	.	.	8G\J	.	.	.	.	.	.	.	.	.	.	.	.	.	.	.	.
.	.	.	4B-/	.	4c#/	.	4g/	.	8F\L	pec-	.	.	.	.	.	.	.	.	.	.	.	.	.	.	.
.	.	.	.	.	.	.	.	.	8E\J	.	.	.	.	.	.	.	.	.	.	.	.	.	.	.	.
!	!	!	!	!	!	!	!	!	!	!	!	!	!	!	!	!	!	!	!	!	!	!	!	!LO:LB:g=original	!
=14	=14	=14	=14	=14	=14	=14	=14	=14	=14	=14	=14	=14	=14	=14	=14	=14	=14	=14	=14	=14	=14	=14	=14	=14	=14
.	.	.	.	.	.	.	.	.	8qqD/	.	.	.	.	.	.	.	.	.	.	.	.	.	.	.	.
1Gn	4/ 3-	.	4r	.	4r	.	4r	.	4C#X/	-ca-	.	.	.	.	.	.	.	.	.	.	.	.	.	8r	.
.	X 2	.	.	.	.	.	.	.	.	.	.	.	.	.	.	.	.	.	.	.	.	.	.	(<32qqgg/LLL	.
.	.	.	.	.	.	.	.	.	.	.	.	.	.	.	.	.	.	.	.	.	.	.	.	32qqff/	.
.	.	.	.	.	.	.	.	.	.	.	.	.	.	.	.	.	.	.	.	.	.	.	.	32qqee/	.
.	.	.	.	.	.	.	.	.	.	.	.	.	.	.	.	.	.	.	.	.	.	.	.	32qqdd/JJJ)	.
.	.	.	.	.	.	.	.	.	.	.	.	.	.	.	.	.	.	.	.	.	.	.	.	(>8ee\L	.
!	!	!	!	!	!	!	!	!	!LO:LB:g=original	!	!	!	!	!	!	!	!	!	!	!	!	!	!	!	!
.	.	.	(<4B-/	.	4c#X/	.	4e/	.	4C#X/	-ta	.	.	.	.	.	.	.	.	.	.	.	.	.	8gg\	.
.	.	.	.	.	.	.	.	.	.	.	.	.	.	.	.	.	.	.	.	.	.	.	.	8ee\J	.
.	.	.	4A/	.	4c#/	.	4e/	.	4r	.	.	.	.	.	.	.	.	.	.	.	.	.	.	8ddn\L	.
.	.	.	.	.	.	.	.	.	.	.	.	.	.	.	.	.	.	.	.	.	.	.	.	8cc#X\)	.
.	.	.	4A/)	.	4c#/	.	4A/	.	4AA/	pec-	.	.	.	.	.	.	.	.	.	.	.	.	.	8bn\	.
.	.	.	.	.	.	.	.	.	.	.	.	.	.	.	.	.	.	.	.	.	.	.	.	8a\J	.
!	!	!	!	!	!	!	!LO:LB:g=original	!	!	!	!	!	!	!	!	!	!	!	!	!	!	!	!	!	!
=15	=15	=15	=15	=15	=15	=15	=15	=15	=15	=15	=15	=15	=15	=15	=15	=15	=15	=15	=15	=15	=15	=15	=15	=15	=15
*	*	*	*tremolo	*	*	*	*	*	*	*	*	*	*	*	*	*	*	*	*	*	*	*	*	*	*
2F\	X 6	.	8A/L	.	2d/	.	4d/	.	(>4D\	-ca-	.	.	.	.	.	.	.	.	.	.	.	.	.	4dd\	.
.	.	.	8A/	.	.	.	.	.	.	.	.	.	.	.	.	.	.	.	.	.	.	.	.	.	.
.	.	.	8A/	.	.	.	4f/	.	4F\)	.	.	.	.	.	.	.	.	.	.	.	.	.	.	4ff\	.
.	.	.	8A/J	.	.	.	.	.	.	.	.	.	.	.	.	.	.	.	.	.	.	.	.	.	.
*	*	*	*Xtremolo	*	*	*	*	*	*	*	*	*	*	*	*	*	*	*	*	*	*	*	*	*	*
*	*	*	*tremolo	*	*	*	*	*	*	*	*	*	*	*	*	*	*	*	*	*	*	*	*	*	*
2C#X/	X 6	.	8A/L	.	2e/	.	4e/	.	4E\	-ta	.	.	.	.	.	.	.	.	.	.	.	.	.	4ee\	.
.	.	.	8A/	.	.	.	.	.	.	.	.	.	.	.	.	.	.	.	.	.	.	.	.	.	.
.	.	.	8A/	.	.	.	4a/	.	4A\	.	.	.	.	.	.	.	.	.	.	.	.	.	.	4aa\	.
.	.	.	8A/J	.	.	.	.	.	.	.	.	.	.	.	.	.	.	.	.	.	.	.	.	.	.
*	*	*	*Xtremolo	*	*	*	*	*	*	*	*	*	*	*	*	*	*	*	*	*	*	*	*	*	*
=16	=16	=16	=16	=16	=16	=16	=16	=16	=16	=16	=16	=16	=16	=16	=16	=16	=16	=16	=16	=16	=16	=16	=16	=16	=16
*	*	*	*tremolo	*	*	*	*	*	*	*	*	*	*	*	*	*	*	*	*	*	*	*	*	*	*
2D/	9 4	.	8A/L	.	4e/	.	4g/	.	(>4G\	mun-	.	.	.	.	.	.	.	.	.	0r	.	0r	.	4gg\	.
.	8 3	.	8A/	.	.	.	.	.	.	.	.	.	.	.	.	.	.	.	.	.	.	.	.	.	.
.	.	.	8A/	.	4d/	.	4f/	.	4F\)	.	.	.	.	.	.	.	.	.	.	.	.	.	.	4ff\	.
.	.	.	8A/J	.	.	.	.	.	.	.	.	.	.	.	.	.	.	.	.	.	.	.	.	.	.
*	*	*	*Xtremolo	*	*	*	*	*	*	*	*	*	*	*	*	*	*	*	*	*	*	*	*	*	*
*	*	*	*tremolo	*	*	*	*	*	*	*	*	*	*	*	*	*	*	*	*	*	*	*	*	*	*
4AA/	X #	.	8A/L	.	4c#X/	.	4e/	.	4E\	-di	.	.	.	.	.	.	.	.	.	.	.	.	.	4ee\	.
.	.	.	8A/	.	.	.	.	.	.	.	.	.	.	.	.	.	.	.	.	.	.	.	.	.	.
!	!	!	!	!	!	!LO:DY:b:t=fo	!	!	!	!	!	!	!	!	!	!	!	!	!	!	!	!	!	!	!
4AA/	.	.	8A/	.	4a/	f	4a/	.	4A\	pec-	.	.	.	.	.	.	.	.	.	.	.	.	.	4r	.
.	.	.	8A/J	.	.	.	.	.	.	.	.	.	.	.	.	.	.	.	.	.	.	.	.	.	.
*	*	*	*Xtremolo	*	*	*	*	*	*	*	*	*	*	*	*	*	*	*	*	*	*	*	*	*	*
!LO:LB:g=original	!	!	!	!	!	!	!	!	!	!	!	!	!	!	!	!	!	!	!	!	!	!	!	!	!
=17	=17	=17	=17	=17	=17	=17	=17	=17	=17	=17	=17	=17	=17	=17	=17	=17	=17	=17	=17	=17	=17	=17	=17	=17	=17
!	!	!	!	!LO:DY:b	!	!LO:DY:b:t=po&colon;	!	!LO:DY:b:t=fp&colon;	!	!	!	!	!	!	!	!	!	!	!	!	!	!	!	!	!
1BB-	X 7	.	1B-	fp	2.a/	p	1dd	fp	2d\	-ca-	0r	.	.	0r	.	.	0r	.	.	.	.	.	.	1r	.
.	X 6/	.	.	.	.	.	.	.	8c\L	.	.	.	.	.	.	.	.	.	.	.	.	.	.	.	.
.	.	.	.	.	.	.	.	.	8B-\J	.	.	.	.	.	.	.	.	.	.	.	.	.	.	.	.
.	.	.	.	.	4g#X/	.	.	.	8A\L	.	.	.	.	.	.	.	.	.	.	.	.	.	.	.	.
.	.	.	.	.	.	.	.	.	8G#X\J	-ta	.	.	.	.	.	.	.	.	.	.	.	.	.	.	.
=18	=18	=18	=18	=18	=18	=18	=18	=18	=18	=18	=18	=18	=18	=18	=18	=18	=18	=18	=18	=18	=18	=18	=18	=18	=18
4AA/	X #	.	4A/	.	4a/	.	4cc#X\	.	1A	mun-	.	.	.	.	.	.	.	.	.	4r	.	4r	.	4r	.
8.r	.	.	8.r	.	8.r	.	8r	.	.	.	.	.	.	.	.	.	.	.	.	8.r	.	8.r	.	8.r	.
.	.	.	.	.	.	.	16r	.	.	.	.	.	.	.	.	.	.	.	.	.	.	.	.	.	.
!	!	!	!	!	!	!LO:DY:b:t=fo&colon;	!	!	!	!	!	!	!	!	!	!	!	!	!	!	!	!	!	!	!
16A\	6 4	.	16a\	.	16ff 16dd\	f	16ddd 16ff\	.	.	.	.	.	.	.	.	.	.	.	.	16A/	.	16dd\	.	16ff\	.
4A\	5 4	.	4a\	.	4ee 4cc#X\	.	4ccc#X 4ee\	.	.	.	.	.	.	.	.	.	.	.	.	4A/	.	4cc#X\	.	4ee\	.
.	X 3	.	.	.	.	.	.	.	.	.	.	.	.	.	.	.	.	.	.	.	.	.	.	.	.
4A\	6 4	.	4a\	.	4ff 4dd\	.	4ddd 4ff\	.	.	.	.	.	.	.	.	.	.	.	.	4A/	.	4dd\	.	4ff\	.
!	!	!	!LO:LB:g=original	!	!	!	!	!	!	!	!	!	!	!	!	!	!	!	!	!	!	!	!	!	!
=19	=19	=19	=19	=19	=19	=19	=19	=19	=19	=19	=19	=19	=19	=19	=19	=19	=19	=19	=19	=19	=19	=19	=19	=19	=19
4AA/	5 #	.	4A-X/	.	4ee 4cc#X\	.	4ccc#X 4ee\	.	4A;\	.	2r	.	.	2r;	.	.	2r	.	.	4A/	.	4cc#X\	.	4ee\	.
4r	.	.	4r	.	4r	.	4r	.	8G#X\L	.	.	.	.	.	.	.	.	.	.	4r	.	4r	.	4r	.
.	.	.	.	.	.	.	.	.	8A\J	.	.	.	.	.	.	.	.	.	.	.	.	.	.	.	.
2r;	.	.	2r;	.	2r;	.	2r;>	.	4AA;/	-di	2r;	.	.	2r	.	.	2r;	.	.	2r;	.	2r;	.	2r;	.
.	.	.	.	.	.	.	.	.	4r	.	.	.	.	.	.	.	.	.	.	.	.	.	.	.	.
!	!	!	!	!	!LO:LB:g=original	!	!	!	!LO:LB:g=original	!	!	!	!	!	!	!	!	!	!	!	!	!	!	!	!
=20	=20	=20	=20	=20	=20	=20	=20	=20	=20	=20	=20	=20	=20	=20	=20	=20	=20	=20	=20	=20	=20	=20	=20	=20	=20
!LO:TX:b:i:t=Tutti.	!	!	!	!	!	!	!	!	!	!	!	!	!	!	!	!	!	!	!	!LO:TX:a:t=3.	!	!	!	!	!
2e-X\	X 5	.	1r	.	1r	.	1r	.	2e-X\	mi-	1r	.	.	1r	.	.	1r	.	.	0r	.	1r	.	1r	.
!	!	!	!	!	!	!	!	!	!	!	!	!	!	!	!	!	!LO:TX:a:t=1	!	!	!	!	!	!	!	!
2E-X\	.	.	.	.	.	.	.	.	2E-X\	-ſe-	.	.	.	.	.	.	.	.	.	.	.	.	.	.	.
!	!	!	!	!	!LO:TX:b:i:t=Verte&colon;	!	!	!	!	!	!	!	!	!	!	!	!	!	!	!	!	!	!	!	!
!	!	!	!	!	!LO:PB:g=original	!	!	!	!	!	!	!	!	!	!	!	!	!	!	!	!	!	!	!	!
!	!	!	!	!	!	!	!	!	!	!	!	!	!	!	!	!	!	!	!	!	!	!	!	!LO:LB:g=original	!
=21	=21	=21	=21	=21	=21	=21	=21	=21	=21	=21	=21	=21	=21	=21	=21	=21	=21	=21	=21	=21	=21	=21	=21	=21	=21
!LO:N:vis=1E-	!	!	!	!	!	!	!	!	!	!	!	!	!LO:DY:a	!	!	!	!LO:TX:t=P:problem=2\right&colon; global	!	!	!	!	!	!	!	!
!	!	!	!	!	!	!	!	!	!	!	!	!	!LO:DY:a:t=fo&colon;	!	!	!	!	!	!	!	!	!	!	!	!
!	!	!	!	!LO:DY:b:t=for	!	!LO:DY:b:t=fo	!	!LO:DY:b:t=fo&colon;	!	!	!	!	!	!	!	!	!	!	!	!	!	!	!	!	!
1E	X 5	.	2B-/	f	2g/	f	2gg\	f	1E	-re-	2B-\	Mi-	f	2g\	mi-	.	2gg\	Mi-	.	.	.	2f/	.	2gg\	.
.	X 6/	.	2B-/	.	2g/	.	2cc#X\	.	.	.	2B-\	-ſe-	.	2g\	-ſe-	.	2cc#X\	-ſe-	.	.	.	2g/	.	2cc#X\	.
!	!	!	!	!	!	!	!	!	!	!	!	!	!	!	!	!	!	!	!	!	!	!LO:LB:g=original	!	!	!
=22	=22	=22	=22	=22	=22	=22	=22	=22	=22	=22	=22	=22	=22	=22	=22	=22	=22	=22	=22	=22	=22	=22	=22	=22	=22
2D/	6 4	.	2B-/	.	2g/	.	2dd\	.	2D/	.	2B-\	-re-	.	2g\	-re-	.	2dd\	-re-	.	1r	.	2g/	.	2dd\	.
2C/	6 -	.	2A/	.	2g/	.	2ee-X\	.	2C/	-re	2B-\	-re	.	2g\	-re	.	2ee-X\	-re	.	.	.	2g/	.	2ee-X\	.
!	!	!	!	!	!	!	!	!	!	!	!	!	!	!	!	!	!LO:LB:g=original	!	!	!	!	!	!	!	!
=23	=23	=23	=23	=23	=23	=23	=23	=23	=23	=23	=23	=23	=23	=23	=23	=23	=23	=23	=23	=23	=23	=23	=23	=23	=23
!	!	!	!	!LO:DY:b	!	!LO:DY:a:t=po&colon;	!	!	!	!	!	!	!	!	!	!	!	!	!LO:DY:a:t=po	!	!	!	!	!	!
2D\	6 4	.	2B-/	p	2d/	p	2g/	.	1D	no-	2B-\	no-	.	2d\	no-	.	2g/	no-	p	1d	.	2b-/	.	2dd\	.
*	*reverse	*	*	*	*	*	*	*	*	*	*	*	*	*	*	*	*	*	*	*	*	*	*	*	*
2DD/	5 3#	.	2A/	.	2c/	.	2f#X/	.	.	.	2A\	.	.	2c\	.	.	2f#X/	.	.	.	.	2a/	.	2ff#X\	.
*	*Xreverse	*	*	*	*	*	*	*	*	*	*	*	*	*	*	*	*	*	*	*	*	*	*	*	*
!	!	!	!	!	!	!	!LO:LB:g=original	!	!	!	!	!	!	!LO:LB:g=original	!	!	!	!	!	!	!	!	!	!	!
=24	=24	=24	=24	=24	=24	=24	=24	=24	=24	=24	=24	=24	=24	=24	=24	=24	=24	=24	=24	=24	=24	=24	=24	=24	=24
2GG/	.	.	2G/	.	2B-/	.	2g/	.	2GG/	-bis	2G/	-bis	.	2B-/	-bis	.	2g/	-bis	.	2d\	.	2g/	.	2gg\	.
!	!	!	!LO:TX:t=P:problem=2\right&colon; global	!	!	!	!	!	!	!	!	!	!	!	!	!	!	!	!	!	!	!	!	!	!
2BB-/	.	.	2d\	.	4r	.	2r	.	2r	.	2r	.	.	2r	.	.	2r	.	.	2r	.	2r	.	2r	.
.	.	.	.	.	4b-\	.	.	.	.	.	.	.	.	.	.	.	.	.	.	.	.	.	.	.	.
!	!	!	!	!	!	!	!	!	!	!	!LO:LB:g=original	!	!	!	!	!	!	!	!	!	!	!	!	!	!
=25	=25	=25	=25	=25	=25	=25	=25	=25	=25	=25	=25	=25	=25	=25	=25	=25	=25	=25	=25	=25	=25	=25	=25	=25	=25
!	!	!	!	!	!	!	!	!	!	!	!LO:TX:a:t=5.	!	!	!	!	!	!	!	!	!LO:TX:a:t=12.	!	!	!	!	!
!	!	!	!	!LO:DY:b:t=fp	!	!LO:DY:b:t=fp&colon;	!	!	!	!	!	!	!	!	!	!	!	!	!	!	!	!	!	!	!
!	!	!	!	!	!	!	!	!	!	!	!	!	!	!	!	!	!LO:TX:a:t=13	!	!	!	!	!	!	!	!
2C/	7 -	.	2.e-X\	fp	4b-\	fp	2r	.	00r	.	00r	.	.	00r	.	.	00r	.	.	00r	.	2r	.	2r	.
.	6- X	.	.	.	4a-X/	.	.	.	.	.	.	.	.	.	.	.	.	.	.	.	.	.	.	.	.
2c\	4# 2-	.	.	.	4g/	.	4r	.	.	.	.	.	.	.	.	.	.	.	.	.	.	4r	.	4r	.
!	!	!	!	!	!	!LO:DY:b:t=po&colon;	!	!	!	!	!	!	!	!	!	!	!	!	!	!	!	!	!	!	!
.	.	.	4A/	.	4f#X/	p	4ee-X\	.	.	.	.	.	.	.	.	.	.	.	.	.	.	4f#X/	.	4ee-X\	.
!LO:LB:g=original	!	!	!	!	!	!	!	!	!	!	!	!	!	!	!	!	!	!	!	!	!	!	!	!	!
=26	=26	=26	=26	=26	=26	=26	=26	=26	=26	=26	=26	=26	=26	=26	=26	=26	=26	=26	=26	=26	=26	=26	=26	=26	=26
!	!	!	!	!	!	!	!LO:SIC:s=4ee-	!	!	!	!	!	!	!	!	!	!	!	!	!	!	!	!	!LO:SIC:s=4ee-	!
2B-\	X 4	.	2B-/	.	(<4g/	.	(>4ee\	.	.	.	.	.	.	.	.	.	.	.	.	.	.	2g/	.	(4ee\	.
.	X 3	.	.	.	4d/	.	4dd\)	.	.	.	.	.	.	.	.	.	.	.	.	.	.	.	.	4dd\)	.
2BB-/	X 6	.	2d\	.	4g/	.	2r	.	.	.	.	.	.	.	.	.	.	.	.	.	.	2r	.	2r	.
.	.	.	.	.	4b-/)	.	.	.	.	.	.	.	.	.	.	.	.	.	.	.	.	.	.	.	.
=27	=27	=27	=27	=27	=27	=27	=27	=27	=27	=27	=27	=27	=27	=27	=27	=27	=27	=27	=27	=27	=27	=27	=27	=27	=27
!	!	!	!	!LO:DY:b	!	!	!	!	!	!	!	!	!	!	!	!	!	!	!	!	!	!	!	!	!
2C/	7 -	.	2.e-X\	fp	4b-/	.	2r	.	.	.	.	.	.	.	.	.	.	.	.	.	.	2r	.	2r	.
.	6- X	.	.	.	4a-X/	.	.	.	.	.	.	.	.	.	.	.	.	.	.	.	.	.	.	.	.
2c\	5 X	.	.	.	4g/	.	4r	.	.	.	.	.	.	.	.	.	.	.	.	.	.	4r	.	4r	.
.	4/ -	.	4A/	.	4f#X/	.	4ee\	.	.	.	.	.	.	.	.	.	.	.	.	.	.	4f#X/	.	4ee-X\	.
=28	=28	=28	=28	=28	=28	=28	=28	=28	=28	=28	=28	=28	=28	=28	=28	=28	=28	=28	=28	=28	=28	=28	=28	=28	=28
*	*	*	*	*	*tremolo	*	*	*	*	*	*	*	*	*	*	*	*	*	*	*	*	*	*	*	*
4B-\	X 6	.	4B-/	.	8g/L	.	(>8dd\L	.	.	.	.	.	.	.	.	.	.	.	.	.	.	1g	.	(>8dd\L	.
.	.	.	.	.	8g/	.	8gg\	.	.	.	.	.	.	.	.	.	.	.	.	.	.	.	.	8gg\	.
4BB-/	.	.	4G/	.	8g/	.	8ff#X\)	.	.	.	.	.	.	.	.	.	.	.	.	.	.	.	.	8ff#X\)	.
.	.	.	.	.	8g/J	.	8gg\J	.	.	.	.	.	.	.	.	.	.	.	.	.	.	.	.	8gg\J	.
*	*	*	*	*	*Xtremolo	*	*	*	*	*	*	*	*	*	*	*	*	*	*	*	*	*	*	*	*
*	*	*	*	*	*tremolo	*	*	*	*	*	*	*	*	*	*	*	*	*	*	*	*	*	*	*	*
4C/	5_ 3-_	.	8c\	.	8g/L	.	(>8ffn\L	.	.	.	.	.	.	.	.	.	.	.	.	.	.	.	.	8ffn\L	.
.	.	.	8c\L	.	8g/	.	8ee-X\	.	.	.	.	.	.	.	.	.	.	.	.	.	.	.	.	8ee-X\	.
4C/	.	.	8d\	.	8g/	.	8dd\)	.	.	.	.	.	.	.	.	.	.	.	.	.	.	.	.	8dd\	.
.	.	.	8e-X\J	.	8g/J	.	8cc\J	.	.	.	.	.	.	.	.	.	.	.	.	.	.	.	.	8cc\J	.
*	*	*	*	*	*Xtremolo	*	*	*	*	*	*	*	*	*	*	*	*	*	*	*	*	*	*	*	*
!	!	!	!LO:LB:g=original	!	!	!	!	!	!	!	!	!	!	!	!	!	!	!	!	!	!	!	!	!LO:LB:g=original	!
=29	=29	=29	=29	=29	=29	=29	=29	=29	=29	=29	=29	=29	=29	=29	=29	=29	=29	=29	=29	=29	=29	=29	=29	=29	=29
*	*	*	*tremolo	*	*	*	*	*	*	*	*	*	*	*	*	*	*	*	*	*	*	*	*	*	*
!	!	!	!	!	!	!	!	!LO:DY:b:t=for.	!	!	!	!	!	!	!	!	!	!	!	!	!	!	!	!	!
4D\	6 4	.	8d\L	.	4.g/	.	4.b-\	f	00r	.	1r	.	.	00r	.	.	00r	.	.	00r	.	4.g/	.	4.b-\	.
.	.	.	8d\	.	.	.	.	.	.	.	.	.	.	.	.	.	.	.	.	.	.	.	.	.	.
4D\	.	.	8d\	.	.	.	.	.	.	.	.	.	.	.	.	.	.	.	.	.	.	.	.	.	.
.	.	.	8d\J	.	8b-/	.	8dd\	.	.	.	.	.	.	.	.	.	.	.	.	.	.	8b-/	.	8dd\	.
*	*	*	*Xtremolo	*	*	*	*	*	*	*	*	*	*	*	*	*	*	*	*	*	*	*	*	*	*
!	!	!	!	!	!LO:LB:g=original	!	!	!	!	!	!	!	!	!	!	!	!	!	!	!	!	!	!	!	!
4DD/	5 3#	.	8d\L	.	(<8b-/L	.	8dd\L	.	.	.	.	.	.	.	.	.	.	.	.	.	.	8b-/L	.	(>8dd\L	.
.	.	.	8d\	.	8a/	.	(>8cc\	.	.	.	.	.	.	.	.	.	.	.	.	.	.	8a/	.	8cc\	.
4DD/	.	.	8d\	.	8g/	.	8b-\)	.	.	.	.	.	.	.	.	.	.	.	.	.	.	8g/	.	8b-\	.
.	.	.	8c\J	.	8f#X/J)	.	8a\J	.	.	.	.	.	.	.	.	.	.	.	.	.	.	8f#X/J	.	8a\J)	.
!	!	!	!	!	!	!	!	!	!	!	!	!	!	!	!	!	!	!	!	!	!	!LO:LB:g=original	!	!	!
=30	=30	=30	=30	=30	=30	=30	=30	=30	=30	=30	=30	=30	=30	=30	=30	=30	=30	=30	=30	=30	=30	=30	=30	=30	=30
!	!	!	!	!	!	!	!	!	!	!	!LO:TX:a:i:t=Solo.	!	!	!	!	!	!	!	!	!	!	!	!	!	!
4GG/	.	.	4B-/	.	4g/	.	4g/	.	.	.	2.d\	a-	.	.	.	.	.	.	.	.	.	4g/	.	4g/	.
!	!	!	!	!	!	!LO:DY:b:t=po&colon;	!	!	!	!	!	!	!	!	!	!	!	!	!	!	!	!	!	!	!
4r	.	.	4d\	.	4g/	p	4b-/	.	.	.	.	.	.	.	.	.	.	.	.	.	.	4r	.	4r	.
2r	.	.	4d\	.	4g/	.	4b-/	.	.	.	.	.	.	.	.	.	.	.	.	.	.	2r	.	2r	.
.	.	.	4d\	.	4g/	.	4b-/	.	.	.	8c\L	-gnus	.	.	.	.	.	.	.	.	.	.	.	.	.
.	.	.	.	.	.	.	.	.	.	.	8B-\J	.	.	.	.	.	.	.	.	.	.	.	.	.	.
!	!	!	!	!	!	!	!LO:LB:g=original	!	!	!	!	!	!	!	!	!	!	!	!	!	!	!	!	!	!
=31	=31	=31	=31	=31	=31	=31	=31	=31	=31	=31	=31	=31	=31	=31	=31	=31	=31	=31	=31	=31	=31	=31	=31	=31	=31
.	.	.	.	.	.	.	.	.	.	.	8qqA/	.	.	.	.	.	.	.	.	.	.	.	.	.	.
!	!	!LO:DY:b:t=po.	!	!	!	!	!	!	!	!	!	!	!	!	!	!	!	!	!	!	!	!	!	!	!
1BB-	X 6	p	4r	.	4r	.	4r	.	.	.	4G/	de-	.	.	.	.	.	.	.	.	.	00r	.	8r	.
.	.	.	.	.	.	.	.	.	.	.	.	.	.	.	.	.	.	.	.	.	.	.	.	8gg\L	.
!	!	!	!	!	!	!	!	!	!	!	!	!	!	!	!	!	!	!	!	!	!	!	!	!	!LO:DY:b
.	.	.	4d\	.	4g/	.	4g/	.	.	.	4G/	-i	.	.	.	.	.	.	.	.	.	.	.	(>8bb-\	f
.	.	.	.	.	.	.	.	.	.	.	.	.	.	.	.	.	.	.	.	.	.	.	.	8ff#X\J	.
!	!	!	!	!	!	!	!	!	!	!	!	!	!	!	!	!	!	!	!	!	!	!	!	!	!LO:DY:b:t=p&colon;
.	.	.	4d\	.	4g/	.	4g/	.	.	.	4r	.	.	.	.	.	.	.	.	.	.	.	.	8gg\L	p
.	.	.	.	.	.	.	.	.	.	.	.	.	.	.	.	.	.	.	.	.	.	.	.	8dd\	.
.	.	.	4d\	.	4g/	.	4g/	.	.	.	4G/	qui	.	.	.	.	.	.	.	.	.	.	.	8ee-X\)	.
.	.	.	.	.	.	.	.	.	.	.	.	.	.	.	.	.	.	.	.	.	.	.	.	8bn\J	.
=32	=32	=32	=32	=32	=32	=32	=32	=32	=32	=32	=32	=32	=32	=32	=32	=32	=32	=32	=32	=32	=32	=32	=32	=32	=32
4AA/	6 5-	.	4r	.	4r	.	4r	.	.	.	2e-X\	tol-	.	.	.	.	.	.	.	.	.	.	.	4cc\	.
4r	.	.	4e-X\	.	4f#X/	.	4cc\	.	.	.	.	.	.	.	.	.	.	.	.	.	.	.	.	4r	.
2r	.	.	4e-\	.	4f#/	.	4cc\	.	.	.	8d\L	-lis	.	.	.	.	.	.	.	.	.	.	.	2r	.
.	.	.	.	.	.	.	.	.	.	.	8c\J	.	.	.	.	.	.	.	.	.	.	.	.	.	.
.	.	.	4e-\	.	4f#/	.	4cc\	.	.	.	8B-\L	pec-	.	.	.	.	.	.	.	.	.	.	.	.	.
.	.	.	.	.	.	.	.	.	.	.	8A\J	.	.	.	.	.	.	.	.	.	.	.	.	.	.
=33	=33	=33	=33	=33	=33	=33	=33	=33	=33	=33	=33	=33	=33	=33	=33	=33	=33	=33	=33	=33	=33	=33	=33	=33	=33
.	.	.	.	.	.	.	.	.	.	.	8qqG/	.	.	.	.	.	.	.	.	.	.	.	.	.	.
1C	4#_ 2_	.	4r	.	4r	.	4r	.	00r	.	4F#X/	-ca-	.	00r	.	.	00r	.	.	00r	.	.	.	8r	.
.	.	.	.	.	.	.	.	.	.	.	.	.	.	.	.	.	.	.	.	.	.	.	.	8aa\L	.
!	!	!	!LO:SIC:s=4e-	!	!	!	!	!	!	!	!	!	!	!	!	!	!	!	!	!	!	!	!	!	!
.	.	.	(>4e\	.	4f/	.	4a/	.	.	.	4F#/	-ta	.	.	.	.	.	.	.	.	.	.	.	8ccc\	.
.	.	.	.	.	.	.	.	.	.	.	.	.	.	.	.	.	.	.	.	.	.	.	.	8aa\J	.
.	.	.	4d\	.	4f/	.	4a/	.	.	.	4r	.	.	.	.	.	.	.	.	.	.	.	.	(>8gg\L	.
.	.	.	.	.	.	.	.	.	.	.	.	.	.	.	.	.	.	.	.	.	.	.	.	8ff#X\	.
.	.	.	4d\)	.	4f/	.	4d/	.	.	.	4D/	pec-	.	.	.	.	.	.	.	.	.	.	.	8ee\	.
.	.	.	.	.	.	.	.	.	.	.	.	.	.	.	.	.	.	.	.	.	.	.	.	8dd\J)	.
=34	=34	=34	=34	=34	=34	=34	=34	=34	=34	=34	=34	=34	=34	=34	=34	=34	=34	=34	=34	=34	=34	=34	=34	=34	=34
*	*	*	*tremolo	*	*	*	*	*	*	*	*	*	*	*	*	*	*	*	*	*	*	*	*	*	*
2BB-/	X 6	.	8d\L	.	2g/	.	4g/	.	.	.	(<4G/	-ca-	.	.	.	.	.	.	.	.	.	.	.	4gg\	.
.	.	.	8d\	.	.	.	.	.	.	.	.	.	.	.	.	.	.	.	.	.	.	.	.	.	.
.	.	.	8d\	.	.	.	4b-/	.	.	.	4B-X/)	.	.	.	.	.	.	.	.	.	.	.	.	2.dd\	.
.	.	.	8d\J	.	.	.	.	.	.	.	.	.	.	.	.	.	.	.	.	.	.	.	.	.	.
*	*	*	*Xtremolo	*	*	*	*	*	*	*	*	*	*	*	*	*	*	*	*	*	*	*	*	*	*
*	*	*	*tremolo	*	*	*	*	*	*	*	*	*	*	*	*	*	*	*	*	*	*	*	*	*	*
2F#X\	X 6	.	8d\L	.	2a/	.	4a/	.	.	.	(>4A\	-ta	.	.	.	.	.	.	.	.	.	.	.	.	.
.	.	.	8d\	.	.	.	.	.	.	.	.	.	.	.	.	.	.	.	.	.	.	.	.	.	.
.	.	.	8d\	.	.	.	4dd\	.	.	.	4d\)	.	.	.	.	.	.	.	.	.	.	.	.	.	.
.	.	.	8d\J	.	.	.	.	.	.	.	.	.	.	.	.	.	.	.	.	.	.	.	.	.	.
*	*	*	*Xtremolo	*	*	*	*	*	*	*	*	*	*	*	*	*	*	*	*	*	*	*	*	*	*
!	!	!	!	!	!	!	!	!	!	!	!	!	!	!	!	!	!	!	!	!	!	!	!	!LO:LB:g=original	!
=35	=35	=35	=35	=35	=35	=35	=35	=35	=35	=35	=35	=35	=35	=35	=35	=35	=35	=35	=35	=35	=35	=35	=35	=35	=35
*	*	*	*tremolo	*	*	*	*	*	*	*	*	*	*	*	*	*	*	*	*	*	*	*	*	*	*
2G\	9 4	.	8d\L	.	4a/	.	(>4cc\	.	.	.	(>4c\	mun-	.	.	.	.	.	.	.	.	.	0r	.	2.dd\	.
.	8 3-	.	8d\	.	.	.	.	.	.	.	.	.	.	.	.	.	.	.	.	.	.	.	.	.	.
.	.	.	8d\	.	4g/	.	4b-\)	.	.	.	4B-\)	.	.	.	.	.	.	.	.	.	.	.	.	.	.
.	.	.	8d\J	.	.	.	.	.	.	.	.	.	.	.	.	.	.	.	.	.	.	.	.	.	.
*	*	*	*Xtremolo	*	*	*	*	*	*	*	*	*	*	*	*	*	*	*	*	*	*	*	*	*	*
*	*	*	*tremolo	*	*	*	*	*	*	*	*	*	*	*	*	*	*	*	*	*	*	*	*	*	*
4D\	X #	.	8d\L	.	4f#X/	.	4a\	.	.	.	4A\	-di	.	.	.	.	.	.	.	.	.	.	.	.	.
.	.	.	8d\	.	.	.	.	.	.	.	.	.	.	.	.	.	.	.	.	.	.	.	.	.	.
!	!	!	!	!	!	!	!	!	!	!	!LO:LB:g=original	!	!	!	!	!	!	!	!	!	!	!	!	!	!
4D\	.	.	8d\	.	4f#/	.	4dd\	.	.	.	4d\	pec-	.	.	.	.	.	.	.	.	.	.	.	4r	.
.	.	.	8d\J	.	.	.	.	.	.	.	.	.	.	.	.	.	.	.	.	.	.	.	.	.	.
*	*	*	*Xtremolo	*	*	*	*	*	*	*	*	*	*	*	*	*	*	*	*	*	*	*	*	*	*
!LO:LB:g=original	!	!	!	!	!	!	!	!	!	!	!	!	!	!	!	!	!	!	!	!	!	!	!	!	!
=36	=36	=36	=36	=36	=36	=36	=36	=36	=36	=36	=36	=36	=36	=36	=36	=36	=36	=36	=36	=36	=36	=36	=36	=36	=36
!	!	!	!	!LO:DY:b	!	!	!	!	!	!	!	!	!	!	!	!	!	!	!	!	!	!	!	!	!
1E-X	X 7	.	1e-X	fp	1g	.	2.dd\	.	.	.	2g\	-ca-	.	.	.	.	.	.	.	.	.	.	.	1r	.
.	X 6/	.	.	.	.	.	.	.	.	.	8f\L	.	.	.	.	.	.	.	.	.	.	.	.	.	.
.	.	.	.	.	.	.	.	.	.	.	8e-X\J	.	.	.	.	.	.	.	.	.	.	.	.	.	.
.	.	.	.	.	.	.	4cc#X\	.	.	.	8d\L	-ta	.	.	.	.	.	.	.	.	.	.	.	.	.
.	.	.	.	.	.	.	.	.	.	.	8c#X\J	.	.	.	.	.	.	.	.	.	.	.	.	.	.
!	!	!	!	!	!	!	!	!	!	!	!	!	!	!	!	!	!	!	!	!LO:LB:g=original	!	!	!	!	!
=37	=37	=37	=37	=37	=37	=37	=37	=37	=37	=37	=37	=37	=37	=37	=37	=37	=37	=37	=37	=37	=37	=37	=37	=37	=37
*	*	*	*	*	*^	*	*	*	*	*	*	*	*	*	*	*	*	*	*	*	*	*	*	*	*
4D\	X #	.	4d\	.	4f#X/	4ryy	.	4dd\	.	1r	.	1d	mun-	.	0r	.	.	1r	.	.	4r	.	4r	.	4r	.
8.r	.	.	8.r	.	8.r	8.ryy	.	8r	.	.	.	.	.	.	.	.	.	.	.	.	8.r	.	8.r	.	8.r	.
.	.	.	.	.	.	.	.	16r	.	.	.	.	.	.	.	.	.	.	.	.	.	.	.	.	.	.
!	!	!	!	!	!LO:LB:g=original	!	!	!	!	!	!	!	!	!	!	!	!	!	!	!	!	!	!	!LO:DY:a	!	!
16D\	6 4	.	16d\	.	16b-/	16g\	.	16gg 16b-X/	.	.	.	.	.	.	.	.	.	.	.	.	16d\	.	16b-\	f	16gg\	.
4D\	5 #	.	4d\	.	4a/	4f#X\	.	4ff#X 4a/	.	.	.	.	.	.	.	.	.	.	.	.	4d\	.	4a\	.	4ff#X\	.
4D\	6 4	.	4d\	.	4b-/	4g\	.	4gg 4b-/	.	.	.	.	.	.	.	.	.	.	.	.	4d\	.	4b-\	.	4gg\	.
*	*	*	*	*	*v	*v	*	*	*	*	*	*	*	*	*	*	*	*	*	*	*	*	*	*	*	*
!	!	!	!LO:LB:g=original	!	!	!	!	!	!	!	!	!	!	!	!	!	!	!	!	!	!	!	!	!	!
=38	=38	=38	=38	=38	=38	=38	=38	=38	=38	=38	=38	=38	=38	=38	=38	=38	=38	=38	=38	=38	=38	=38	=38	=38	=38
!LO:TX:t=P:problem=w źródle brak 2 kolejnych pustych taktów; dodano, aby zgadzały się piony brzmieniowe	!	!	!LO:TX:t=P:problem=w źródle brak 2 kolejnych pustych taktów; dodano, aby zgadzały się piony brzmieniowe	!	!LO:TX:t=P:problem=w źródle brak 2 kolejnych pustych taktów; dodano, aby zgadzały się piony brzmieniowe	!	!LO:TX:t=P:problem=w źródle brak 2 kolejnych pustych taktów; dodano, aby zgadzały się piony brzmieniowe	!	!LO:TX:t=P:problem=w źródle brak 2 kolejnych pustych taktów; dodano, aby zgadzały się piony brzmieniowe	!	!LO:TX:t=P:problem=w źródle brak 2 kolejnych pustych taktów; dodano, aby zgadzały się piony brzmieniowe	!	!	!	!	!	!LO:TX:t=P:problem=w źródle brak 2 kolejnych pustych taktów; dodano, aby zgadzały się piony brzmieniowe	!	!	!LO:TX:t=P:problem=w źródle brak 2 kolejnych pustych taktów; dodano, aby zgadzały się piony brzmieniowe	!	!LO:TX:t=P:problem=w źródle brak 2 kolejnych pustych taktów; dodano, aby zgadzały się piony brzmieniowe	!	!LO:TX:t=P:problem=w źródle brak 2 kolejnych pustych taktów; dodano, aby zgadzały się piony brzmieniowe	!
!	!	!	!	!	!	!	!	!	!	!	!	!	!	!LO:TX:t=P:problem=2 kolejne takty wypełnione pauzami pojawiają się tylko w partii Altu; w pozostałych głosach dodano również dodano puste takty, aby zgadzały się piony brzmienionwe	!	!	!	!	!	!	!	!	!	!	!
1ryy	.	.	1ryy	.	1ryy	.	1ryy	.	1ryy	.	1ryy	.	.	.	.	.	1ryy	.	.	1ryy	.	1ryy	.	1ryy	.
=39	=39	=39	=39	=39	=39	=39	=39	=39	=39	=39	=39	=39	=39	=39	=39	=39	=39	=39	=39	=39	=39	=39	=39	=39	=39
1ryy	.	.	1ryy	.	1ryy	.	1ryy	.	1ryy	.	1ryy	.	.	1r	.	.	1ryy	.	.	1ryy	.	1ryy	.	1ryy	.
=40	=40	=40	=40	=40	=40	=40	=40	=40	=40	=40	=40	=40	=40	=40	=40	=40	=40	=40	=40	=40	=40	=40	=40	=40	=40
*	*	*	*	*	*^	*	*	*	*	*	*	*	*	*	*	*	*	*	*	*	*	*	*	*	*
4DD/	5 #	.	4D/	.	4a/	4f\	.	4ff#X 4a/	.	2r	.	4.d;\	.	.	2r	.	.	2r	.	.	4d\	.	4a/	.	4ff#X\	.
4r	.	.	4r	.	4r	4ryy	.	4r	.	.	.	.	.	.	.	.	.	.	.	.	4r;	.	4r	.	4r	.
.	.	.	.	.	.	.	.	.	.	.	.	16c#X\LL	.	.	.	.	.	.	.	.	.	.	.	.	.	.
.	.	.	.	.	.	.	.	.	.	.	.	16d\JJ	.	.	.	.	.	.	.	.	.	.	.	.	.	.
2r;	.	.	2r;	.	2r;	2ryy	.	2r;	.	2r;	.	4D/	-di	.	2r;	.	.	2r;	.	.	2r	.	2r;	.	2r;	.
.	.	.	.	.	.	.	.	.	.	.	.	4r	.	.	.	.	.	.	.	.	.	.	.	.	.	.
!	!	!	!	!	!	!	!	!LO:LB:g=original	!	!	!	!	!	!	!	!	!	!	!	!	!	!	!	!	!	!
*	*	*	*	*	*v	*v	*	*	*	*	*	*	*	*	*	*	*	*	*	*	*	*	*	*	*	*
=41	=41	=41	=41	=41	=41	=41	=41	=41	=41	=41	=41	=41	=41	=41	=41	=41	=41	=41	=41	=41	=41	=41	=41	=41	=41
*clefC1	*	*	*	*	*	*	*	*	*	*	*	*	*	*	*	*	*	*	*	*	*	*	*	*	*
!LO:TX:a:i:t=Tutti.	!	!	!LO:TX:a:t=2	!	!	!	!	!	!	!	!	!	!	!	!	!	!	!	!	!LO:TX:a:t=24.	!	!	!	!	!
!	!	!	!	!	!	!LO:DY:b:t=fo	!	!LO:DY:b:t=fo&colon;	!	!	!	!	!	!	!	!	!	!	!	!	!	!	!	!	!
2ffn\	.	.	0r	.	2ffn\	f	2ffn\	f	1r	.	0r	.	.	1r	.	.	2ff\	mi-	.	00r	.	1r	.	1r	.
2f/	.	.	.	.	2f/	.	2f/	.	.	.	.	.	.	.	.	.	2f/	-ſe-	.	.	.	.	.	.	.
*	*	*	*	*	*	*	*	*	*	*	*	*	*	*	*	*	*	*	*	*	*	*custos:ff	*	*	*
!	!	!	!	!	!	!	!	!	!	!	!	!	!	!	!	!	!	!	!	!	!	!LO:TX:b:i:t=verte	!	!	!
!	!	!	!	!	!	!	!	!	!	!	!	!	!	!	!	!	!	!	!	!	!	!LO:PB:g=original	!	!	!
=42	=42	=42	=42	=42	=42	=42	=42	=42	=42	=42	=42	=42	=42	=42	=42	=42	=42	=42	=42	=42	=42	=42	=42	=42	=42
*clefF4	*	*	*	*	*	*	*	*	*	*	*	*	*	*	*	*	*	*	*	*	*	*	*	*	*
!	!	!	!	!	!	!	!	!LO:DY:b:t=for&colon;	!	!	!	!	!	!	!	!	!	!	!	!	!	!	!	!	!
!	!	!LO:DY:b:t=fo&colon;	!	!	!	!	!	!	!	!	!	!	!	!	!	!	!	!	!	!	!	!	!	!	!
2d-X\	X 5	f	.	.	4f/	.	4a-X/	f	2d-X\	mi-	.	.	.	2f\	mi-	.	1a-X	-re-	.	.	.	1ff	.	1aa-X	.
.	.	.	.	.	4f/	.	4a-/	.	.	.	.	.	.	.	.	.	.	.	.	.	.	.	.	.	.
2D-X\	.	.	.	.	4f/	.	4a-/	.	2D-X/	-ſe-	.	.	.	2f\	-ſe-	.	.	.	.	.	.	.	.	.	.
.	.	.	.	.	4f/	.	4a-/	.	.	.	.	.	.	.	.	.	.	.	.	.	.	.	.	.	.
=43	=43	=43	=43	=43	=43	=43	=43	=43	=43	=43	=43	=43	=43	=43	=43	=43	=43	=43	=43	=43	=43	=43	=43	=43	=43
!	!	!	!	!	!	!	!LO:SIC:s=4a-	!	!	!	!	!	!LO:DY:a:t=fo&colon;	!	!	!	!LO:SIC:s=2a-	!	!	!	!	!	!	!	!
!	!	!	!	!LO:DY:b:t=fo	!	!	!	!	!	!	!	!	!	!	!	!	!	!	!	!	!	!	!	!	!
!	!	!	!	!	!	!	!	!	!	!	!	!	!	!	!	!	!	!	!	!	!	!	!	!LO:SIC:s=1a-	!
2C/	6- 4	.	4c\	f	4f/	.	4a/	.	2C/	-re-	4c\	mi-	f	2f\	-re-	.	2a\	.	.	.	.	1ff	.	1aa	.
!	!	!	!	!	!	!	!LO:SIC:s=4a-	!	!	!	!	!	!	!	!	!	!	!	!	!	!	!	!	!	!
.	.	.	4c\	.	4f/	.	4a/	.	.	.	4c\	-ſe-	.	.	.	.	.	.	.	.	.	.	.	.	.
!	!	!	!	!	!	!	!LO:SIC:s=4a-	!	!	!	!	!	!	!	!	!	!LO:SIC:s=2a-	!	!	!	!	!	!	!	!
!	!	!	!	!	!	!	!	!	!LO:LB:g=original	!	!	!	!	!	!	!	!	!	!	!	!	!	!	!	!
2BBn/	X 7-	.	4d\	.	4f/	.	4a/	.	2BBn/	-re	4d\	-re-	.	2f\	-re	.	2a\	-re	.	.	.	.	.	.	.
!	!	!	!	!	!	!	!LO:SIC:;s=4a-	!	!	!	!	!	!	!	!	!	!	!	!	!	!	!	!	!	!
.	.	.	4d\	.	4f/	.	4a/	.	.	.	4d\	-re	.	.	.	.	.	.	.	.	.	.	.	.	.
=44	=44	=44	=44	=44	=44	=44	=44	=44	=44	=44	=44	=44	=44	=44	=44	=44	=44	=44	=44	=44	=44	=44	=44	=44	=44
!	!	!	!	!LO:DY:b:t=po	!	!LO:DY:b:t=po	!	!	!	!	!	!	!	!	!	!	!	!	!	!	!	!	!	!	!
2C/	6n 4	.	4c/	p	4f/	p	4an/	.	1C	no-	(>2c\	no-	.	2f\	no-	.	2an\	no-	.	.	.	2ff\	.	2aan\	.
.	.	.	4c/	.	4f/	.	4a/	.	.	.	.	.	.	.	.	.	.	.	.	.	.	.	.	.	.
2CC/	5 2	.	4B-/	.	4e/	.	4g/	.	.	.	2B-\)	.	.	2e\	.	.	2g/	.	.	.	.	2ee\	.	2gg\	.
.	.	.	4B-/	.	4e/	.	4g/	.	.	.	.	.	.	.	.	.	.	.	.	.	.	.	.	.	.
=45	=45	=45	=45	=45	=45	=45	=45	=45	=45	=45	=45	=45	=45	=45	=45	=45	=45	=45	=45	=45	=45	=45	=45	=45	=45
4FF/	.	.	4A/	.	4f/	.	4f/	.	2FF/	-bis	4A/	-bis	.	2f\	-biſ	.	2f/	-bis	.	00r	.	4ff\	.	4ff\	.
4r	.	.	4c/	.	4r	.	4cc\	.	.	.	4r	.	.	.	.	.	.	.	.	.	.	4cc\	.	4r	.
*custos:A	*	*	*	*	*	*	*	*	*	*	*	*	*	*	*	*	*	*	*	*	*	*	*	*	*
!LO:LB:g=original	!	!	!	!	!	!	!	!	!	!	!	!	!	!	!	!	!	!	!	!	!	!	!	!	!
2A\	X 6	.	16Bn/LL	.	4r	.	2cc\	.	2r	.	2r	.	.	2r	.	.	2r	.	.	.	.	2cc\	.	4r	.
.	.	.	32c/L	.	.	.	.	.	.	.	.	.	.	.	.	.	.	.	.	.	.	.	.	.	.
.	.	.	32d/JJJ	.	.	.	.	.	.	.	.	.	.	.	.	.	.	.	.	.	.	.	.	.	.
!	!	!	!LO:N:vis=2	!	!	!	!	!	!	!	!	!	!	!	!	!	!	!	!	!	!	!	!	!	!
.	.	.	4.c/	.	.	.	.	.	.	.	.	.	.	.	.	.	.	.	.	.	.	.	.	.	.
.	.	.	.	.	(<8c/L	.	.	.	.	.	.	.	.	.	.	.	.	.	.	.	.	.	.	8cc\L	.
.	.	.	.	.	8f/J)	.	.	.	.	.	.	.	.	.	.	.	.	.	.	.	.	.	.	8ff\J	.
!	!	!	!	!	!	!	!	!	!	!	!LO:PB:g=original	!	!	!	!	!	!LO:LB:g=original	!	!	!	!	!	!	!	!
=46	=46	=46	=46	=46	=46	=46	=46	=46	=46	=46	=46	=46	=46	=46	=46	=46	=46	=46	=46	=46	=46	=46	=46	=46	=46
!	!	!	!	!	!	!	!	!	!	!	!	!	!	!	!	!	!LO:TX:a:t=4	!	!	!	!	!	!	!	!
2B-\	4 2	.	1c	.	(<8f/L	.	1cc	.	00r	.	00r	.	.	0r	.	.	00r	.	.	.	.	1cc	.	8ff\L	.
.	.	.	.	.	8e/)	.	.	.	.	.	.	.	.	.	.	.	.	.	.	.	.	.	.	8ee\J	.
!	!	!	!	!	!	!	!	!	!	!	!	!	!	!	!	!	!	!	!	!	!	!	!	!LO:LB:g=original	!
.	.	.	.	.	(<8e/	.	.	.	.	.	.	.	.	.	.	.	.	.	.	.	.	.	.	(>8ee\L	.
.	.	.	.	.	8g/J)	.	.	.	.	.	.	.	.	.	.	.	.	.	.	.	.	.	.	8gg\J)	.
!	!	!	!	!	!LO:LB:g=original	!	!	!	!	!	!	!	!	!	!	!	!	!	!	!	!	!	!	!	!
4A\	X 6/	.	.	.	(<8g/L	.	.	.	.	.	.	.	.	.	.	.	.	.	.	.	.	.	.	(>8gg\L	.
.	.	.	.	.	8f#X/)	.	.	.	.	.	.	.	.	.	.	.	.	.	.	.	.	.	.	8ff#X\	.
4D\	.	.	.	.	(<8f#/	.	.	.	.	.	.	.	.	.	.	.	.	.	.	.	.	.	.	8ff#\	.
.	.	.	.	.	8a/J)	.	.	.	.	.	.	.	.	.	.	.	.	.	.	.	.	.	.	8aa\J)	.
=47	=47	=47	=47	=47	=47	=47	=47	=47	=47	=47	=47	=47	=47	=47	=47	=47	=47	=47	=47	=47	=47	=47	=47	=47	=47
2G\	.	.	8c/L	.	8a/L	.	8cc\L	.	.	.	.	.	.	.	.	.	.	.	.	.	.	8cc\L	.	(>8aa\L	.
.	.	.	8B-/J	.	8g/J	.	8b-\J	.	.	.	.	.	.	.	.	.	.	.	.	.	.	8b-\J	.	8gg\J)	.
!	!	!	!	!	!	!LO:DY:b:t=fp&colon;	!	!LO:DY:b:t=fp&colon;	!	!	!	!	!	!	!	!	!	!	!	!	!	!	!	!	!
.	.	.	2d\	.	2b-/	fp	2dd\	fp	.	.	.	.	.	.	.	.	.	.	.	.	.	(>2dd\	.	2bb-\	.
2En\	X 5-	.	.	.	.	.	.	.	.	.	.	.	.	.	.	.	.	.	.	.	.	.	.	.	.
.	.	.	8c/L	.	8a/L	.	8cc\L	.	.	.	.	.	.	.	.	.	.	.	.	.	.	8cc\L	.	(>8aa\L	.
.	.	.	8B-/J	.	8g/J	.	8b-\J	.	.	.	.	.	.	.	.	.	.	.	.	.	.	8b-\J)	.	8gg\J)	.
=48	=48	=48	=48	=48	=48	=48	=48	=48	=48	=48	=48	=48	=48	=48	=48	=48	=48	=48	=48	=48	=48	=48	=48	=48	=48
4F\	.	.	(<8A/L	.	(<8f/L	.	(<8a/L	.	.	.	.	.	.	1r	.	.	.	.	.	.	.	(>8a\L	.	8ffn\L	.
.	.	.	8F/	.	8c/	.	8f/	.	.	.	.	.	.	.	.	.	.	.	.	.	.	8cc\)	.	8ff\	.
4FF/	.	.	8A/	.	8f/	.	8a/)	.	.	.	.	.	.	.	.	.	.	.	.	.	.	8ff'\	.	8aa\	.
.	.	.	8c/J)	.	8a/J)	.	8cc/J	.	.	.	.	.	.	.	.	.	.	.	.	.	.	8aa'\J	.	8ccc\J	.
4C/	.	.	4.c/	.	8a/L	.	(<8cc/L	.	.	.	.	.	.	.	.	.	.	.	.	.	.	(>8aa\L	.	8ccc\L	.
.	.	.	.	.	8g/	.	8b-/	.	.	.	.	.	.	.	.	.	.	.	.	.	.	8gg\)	.	8bb-\	.
4CC/	.	.	.	.	8f/	.	8a/	.	.	.	.	.	.	.	.	.	.	.	.	.	.	8ff'\	.	8aa\	.
.	.	.	8B-/	.	8e/J	.	8g/J)	.	.	.	.	.	.	.	.	.	.	.	.	.	.	8ee'\J	.	8gg\J	.
!	!	!	!	!	!	!	!	!	!	!	!	!	!	!LO:LB:g=original	!	!	!	!	!	!	!	!	!	!	!
!	!	!	!	!	!	!	!LO:LB:g=original	!	!	!	!	!	!	!	!	!	!	!	!	!	!	!	!	!	!
=49	=49	=49	=49	=49	=49	=49	=49	=49	=49	=49	=49	=49	=49	=49	=49	=49	=49	=49	=49	=49	=49	=49	=49	=49	=49
!	!	!	!	!	!	!	!	!	!	!	!	!	!	!LO:TX:a:i:t=Solo.	!	!	!	!	!	!	!	!	!	!	!
.	.	.	.	.	.	.	.	.	.	.	.	.	.	.	.	.	.	.	.	.	.	8qqee/	.	.	.
!	!	!	!	!LO:DY:b:t=po	!	!LO:DY:b:t=po	!	!	!	!	!	!	!	!	!	!	!	!	!	!	!	!	!	!	!
4FF/	.	.	4A/	p	4f/	p	4f/	.	.	.	.	.	.	2.cc\	A-	.	.	.	.	00r	.	4ff\	.	4ff\	.
!	!	!	!	!	!	!	!	!LO:DY:b:t=po.	!	!	!	!	!	!	!	!	!	!	!	!	!	!	!	!	!
4r	.	.	4A/	.	4c/	.	4f/	p	.	.	.	.	.	.	.	.	.	.	.	.	.	4r	.	4r	.
2r	.	.	4A/	.	4c/	.	4f/	.	.	.	.	.	.	.	.	.	.	.	.	.	.	2r	.	2r	.
.	.	.	4A/	.	4c/	.	4f/	.	.	.	.	.	.	8b-\L	-gnus	.	.	.	.	.	.	.	.	.	.
.	.	.	.	.	.	.	.	.	.	.	.	.	.	8a\J	.	.	.	.	.	.	.	.	.	.	.
!	!	!	!LO:LB:g=original	!	!	!	!	!	!	!	!	!	!	!	!	!	!	!	!	!	!	!	!	!	!
=50	=50	=50	=50	=50	=50	=50	=50	=50	=50	=50	=50	=50	=50	=50	=50	=50	=50	=50	=50	=50	=50	=50	=50	=50	=50
!	!	!	!	!	!	!	!	!	!	!	!	!	!	!	!	!	!LO:TX:a:i:t=Solo	!	!	!	!	!	!	!	!
.	.	.	.	.	.	.	.	.	.	.	.	.	.	8qg/	.	.	.	.	.	.	.	.	.	.	.
1A	X 6	.	4r	.	4r	.	4r	.	00r	.	00r	.	.	4f\	De-	.	2cc\	A-	.	.	.	0r	.	0r	.
.	.	.	4A/	.	4c/	.	4f/	.	.	.	.	.	.	4f\	-i	.	.	.	.	.	.	.	.	.	.
.	.	.	4A/	.	4c/	.	4f/	.	.	.	.	.	.	4r	.	.	8cc\L	.	.	.	.	.	.	.	.
.	.	.	.	.	.	.	.	.	.	.	.	.	.	.	.	.	8dd\J	.	.	.	.	.	.	.	.
.	.	.	4A/	.	4c/	.	4f/	.	.	.	.	.	.	4f\	qui	.	8ee\L	-gnus	.	.	.	.	.	.	.
.	.	.	.	.	.	.	.	.	.	.	.	.	.	.	.	.	8ff\J	.	.	.	.	.	.	.	.
=51	=51	=51	=51	=51	=51	=51	=51	=51	=51	=51	=51	=51	=51	=51	=51	=51	=51	=51	=51	=51	=51	=51	=51	=51	=51
4G\	X 6	.	4r	.	4r	.	4r	.	.	.	.	.	.	2b-\	tol-	.	4ff\	De-	.	.	.	.	.	.	.
4r	.	.	4B-/	.	4c/	.	4e/	.	.	.	.	.	.	.	.	.	4ee\	-i	.	.	.	.	.	.	.
2r	.	.	4B-/	.	4c/	.	4e/	.	.	.	.	.	.	8cc\L	-lis	.	4r	.	.	.	.	.	.	.	.
.	.	.	.	.	.	.	.	.	.	.	.	.	.	8b-\J	.	.	.	.	.	.	.	.	.	.	.
.	.	.	4B-/	.	4c/	.	4e/	.	.	.	.	.	.	8a\L	pec-	.	4b-\	qui	.	.	.	.	.	.	.
.	.	.	.	.	.	.	.	.	.	.	.	.	.	8g\J	.	.	.	.	.	.	.	.	.	.	.
=52	=52	=52	=52	=52	=52	=52	=52	=52	=52	=52	=52	=52	=52	=52	=52	=52	=52	=52	=52	=52	=52	=52	=52	=52	=52
.	.	.	.	.	.	.	.	.	.	.	.	.	.	8qqf/	.	.	.	.	.	.	.	.	.	.	.
2C/	X 7	.	4r	.	4r	.	4r	.	.	.	.	.	.	4e\	-ca-	.	2gg\	tol-	.	.	.	1r	.	2r	.
.	.	.	4B-/	.	4e/	.	4g/	.	.	.	.	.	.	4e\	-ta	.	.	.	.	.	.	.	.	.	.
2C/	.	.	4B-/	.	4e/	.	4g/	.	.	.	.	.	.	4r	.	.	8ff\L	-lis	.	.	.	.	.	4r	.
.	.	.	.	.	.	.	.	.	.	.	.	.	.	.	.	.	8ee\J	.	.	.	.	.	.	.	.
.	.	.	4B-/	.	4e/	.	4g/	.	.	.	.	.	.	4e\	pec-	.	8dd\L	pec-	.	.	.	.	.	4ee\	.
.	.	.	.	.	.	.	.	.	.	.	.	.	.	.	.	.	8cc\J	.	.	.	.	.	.	.	.
!	!	!	!	!	!LO:LB:g=original	!	!	!	!	!	!	!	!	!	!	!	!	!	!	!	!	!	!	!	!
=53	=53	=53	=53	=53	=53	=53	=53	=53	=53	=53	=53	=53	=53	=53	=53	=53	=53	=53	=53	=53	=53	=53	=53	=53	=53
.	.	.	.	.	.	.	.	.	.	.	.	.	.	.	.	.	8qqb-/	.	.	.	.	.	.	.	.
2C#X/	X 6	.	2A/	.	4e/	.	4A/	.	.	.	.	.	.	4e\	-ca-	.	4a\	-ca-	.	00r	.	2r	.	4ee\	.
.	.	.	.	.	2a/	.	4r	.	.	.	.	.	.	2a\	.	.	4a\	-ta	.	.	.	.	.	2aa\	.
!LO:N:vis=2c#	!	!	!	!	!	!	!	!	!	!	!	!	!	!	!	!	!	!	!	!	!	!	!	!	!
2c\	X 6	.	2e\	.	.	.	4r	.	.	.	.	.	.	.	.	.	4r	.	.	.	.	4r	.	.	.
.	X 5	.	.	.	4g/	.	4a/	.	.	.	.	.	.	4g\	-ta	.	4a\	pec-	.	.	.	4a/	.	4gg\	.
*	*	*	*	*	*	*	*	*	*	*	*	*	*	*	*	*	*custos:a	*	*	*	*	*	*	*	*
!	!	!	!	!	!	!	!	!	!	!	!	!	!	!LO:PB:g=original	!	!	!	!	!	!	!	!	!	!	!
!	!	!	!	!	!	!	!	!	!	!	!	!	!	!	!	!	!	!	!	!	!	!LO:LB:g=original	!	!	!
=54	=54	=54	=54	=54	=54	=54	=54	=54	=54	=54	=54	=54	=54	=54	=54	=54	=54	=54	=54	=54	=54	=54	=54	=54	=54
2d\	X #	.	1d	.	4g/	.	4a/	.	2d\	A-	1r	.	.	4g\	mun-	.	(>4a\	-ca-	.	.	.	4a/	.	4gg\	.
.	.	.	.	.	4f#X/	.	2dd\	.	.	.	.	.	.	4f#X\	-di	.	2dd\)	.	.	.	.	2dd\	.	4ff#X\	.
!	!	!	!	!	!	!	!	!	!	!	!	!	!	!	!	!	!	!	!	!	!	!	!	!LO:LB:g=original	!
2D\	8 #	.	.	.	4r	.	.	.	2D/	-gnus	.	.	.	4r	.	.	.	.	.	.	.	.	.	4r	.
.	7 3	.	.	.	4f#/	.	4cc\	.	.	.	.	.	.	4f#\	qui	.	4cc\	-ta	.	.	.	4ccn\	.	4ff#X\	.
*custos:G	*	*	*	*	*	*	*	*	*	*	*	*	*	*	*	*	*	*	*	*	*	*	*	*	*
!LO:LB:g=original	!	!	!	!	!	!	!	!	!	!	!	!	!	!	!	!	!	!	!	!	!	!	!	!	!
=55	=55	=55	=55	=55	=55	=55	=55	=55	=55	=55	=55	=55	=55	=55	=55	=55	=55	=55	=55	=55	=55	=55	=55	=55	=55
!	!	!	!	!	!	!	!	!	!	!	!LO:TX:a:i:t=Solo.	!	!	!	!	!	!	!	!	!	!	!	!	!	!
2G\	X 4	.	2d\	.	4g/	.	4cc\	.	2G\	De-	2d\	A-	.	4g\	tol-	.	4cc\	mun-	.	.	.	4cc\	.	4gg\	.
.	X 3-	.	.	.	2d/	.	4bn\	.	.	.	.	.	.	2d\	-lis	.	4bn\	-di	.	.	.	4bn\	.	2dd\	.
!	!	!	!	!	!	!	!	!	!	!	!LO:SIC:s=2G	!	!	!	!	!	!	!	!	!	!	!	!	!	!
4GG/	.	.	2G/	.	.	.	4r	.	4GG/	-i	2A/	-gnus	.	.	.	.	4r	.	.	.	.	4r	.	.	.
4G\	X 7	.	.	.	[<4fn/	.	4b\	.	4G\	qui	.	.	.	4fn\	pec-	.	4b\	qui	.	.	.	4b\	.	4ffn\	.
=56	=56	=56	=56	=56	=56	=56	=56	=56	=56	=56	=56	=56	=56	=56	=56	=56	=56	=56	=56	=56	=56	=56	=56	=56	=56
2c\	X 4	.	4G/	.	4f/]	.	4cc\	.	2c\	tol-	4G/	De-	.	(>4f\	-ca-	.	4cc\	tol-	.	.	.	4cc\	.	4ff\	.
.	X 3	.	2c\	.	2e/	.	2g/	.	.	.	2c\	-i	.	2e\)	.	.	2g/	-lis	.	.	.	2g/	.	2ee\	.
2C/	X 8	.	.	.	.	.	.	.	4C/	-lis	.	.	.	.	.	.	.	.	.	.	.	.	.	.	.
.	X 7-	.	4c\	.	4g/	.	4b-X/	.	4C/	pec-	4c\	qui	.	4g\	-ta	.	4b-X\	pec-	.	.	.	4b-X\	.	4gg\	.
=57	=57	=57	=57	=57	=57	=57	=57	=57	=57	=57	=57	=57	=57	=57	=57	=57	=57	=57	=57	=57	=57	=57	=57	=57	=57
2F\	9 4	.	2c\	.	(<4g/	.	4b-/	.	2F\	-ca-	4c\	tol-	.	4g\	mun-	.	4b-\	-ca-	.	00r	.	4b-\	.	4gg\	.
.	8 3	.	.	.	4f/)	.	4a/	.	.	.	4c\	-lis	.	4f\	-di	.	4a\	-ta	.	.	.	4a/	.	4ff\	.
4FF/	.	.	4r	.	4r	.	4r	.	4FF/	-ta	4r	.	.	4r	.	.	4r	.	.	.	.	2r	.	2r	.
4D\	.	.	4d\	.	4a/	.	4ff\	.	4C/	pec-	4d\	pec-	.	4a\	pec-	.	4ff\	pec-	.	.	.	.	.	.	.
!	!	!	!	!	!	!	!LO:LB:g=original	!	!LO:LB:g=original	!	!	!	!	!	!	!	!	!	!	!	!	!	!	!	!
=58	=58	=58	=58	=58	=58	=58	=58	=58	=58	=58	=58	=58	=58	=58	=58	=58	=58	=58	=58	=58	=58	=58	=58	=58	=58
!	!	!	!	!	!	!LO:DY:b:t=fp&colon;	!	!	!	!	!	!	!	!	!	!	!	!	!	!	!	!	!	!	!
2G\	9 7	.	(<2B-/	.	4a/	fp	(>4ff\	.	2G\	-ca-	2B-\	-ca-	.	4a\	-ca-	.	4ff\	-ca-	.	.	.	00r	.	00r	.
.	8_ 6_	.	.	.	2g/	.	2ee\	.	.	.	.	.	.	2g\	.	.	2ee\	.	.	.	.	.	.	.	.
2G#X\	7 5	.	2Bn/)	.	.	.	.	.	2G#X\	-ta	2Bn\	-ta	.	.	.	.	.	.	.	.	.	.	.	.	.
.	.	.	.	.	4f/	.	4dd\)	.	.	.	.	.	.	4f\	-ta	.	4dd\	-ta	.	.	.	.	.	.	.
!	!	!	!	!	!	!	!	!	!	!	!	!	!	!LO:LB:g=original	!	!	!	!	!	!	!	!	!	!	!
=59	=59	=59	=59	=59	=59	=59	=59	=59	=59	=59	=59	=59	=59	=59	=59	=59	=59	=59	=59	=59	=59	=59	=59	=59	=59
2A\	6 4	.	2A/	.	4f/	.	4dd\	.	2A\	mun-	4A/	mun-	.	4f\	mun-	.	4dd\	mun-	.	.	.	.	.	.	.
!	!	!	!	!	!	!	!	!	!	!	!	!	!	!	!	!	!LO:LB:g=original	!	!	!	!	!	!	!	!
.	5 3#	.	.	.	4e/	.	4cc#X\	.	.	.	4A/	-di	.	4f\	-di	.	4cc#X\	-di	.	.	.	.	.	.	.
2AA/	.	.	2r	.	4r	.	4r	.	4AA/	-di	2r	.	.	4r	.	.	4r	.	.	.	.	.	.	.	.
!	!	!	!	!	!	!	!	!LO:DY:b:t=for&colon;	!	!	!	!	!	!	!	!	!	!	!	!	!	!	!	!	!
.	.	.	.	.	4a/	.	4a/	f	4AA/	pec-	.	.	.	4a\	pec-	.	4a\	pec-	.	.	.	.	.	.	.
!	!	!	!	!	!	!	!	!	!	!	!LO:LB:g=original	!	!	!	!	!	!	!	!	!	!	!	!	!	!
=60	=60	=60	=60	=60	=60	=60	=60	=60	=60	=60	=60	=60	=60	=60	=60	=60	=60	=60	=60	=60	=60	=60	=60	=60	=60
1BB-	X 7	.	4r	.	2a/	.	(>4dd\	.	1BB-X	-ca-	4r	.	.	2a\	-ca-	.	4dd\	-ca-	.	.	.	.	.	.	.
!	!	!	!LO:LB:g=original	!	!	!	!	!	!	!	!	!	!	!	!	!	!	!	!	!	!	!	!	!	!
!	!	!	!	!LO:DY:b	!	!	!	!	!	!	!	!	!	!	!	!	!	!	!	!	!	!	!	!	!
.	X 6/	.	4c#X\	fp	.	.	4ee\	.	.	.	4c#X\	pec-	.	.	.	.	4ee\	.	.	.	.	.	.	.	.
.	.	.	(>4d\	.	4g#X/	.	4ff\)	.	.	.	4d\	-ca-	.	(>4g#X\	-ta	.	4ff\	.	.	.	.	.	.	.	.
.	.	.	4f\)	.	4d/	.	4g#X/	.	.	.	4f\	-ta	.	4d\)	.	.	4g#X/	-ta	.	.	.	.	.	.	.
!	!	!	!	!	!LO:LB:g=original	!	!	!	!	!	!	!	!	!	!	!	!	!	!	!	!	!	!	!	!
=61	=61	=61	=61	=61	=61	=61	=61	=61	=61	=61	=61	=61	=61	=61	=61	=61	=61	=61	=61	=61	=61	=61	=61	=61	=61
!	!	!	!	!	!	!	!LO:SIC:s=4g#	!	!	!	!	!	!	!	!	!	!	!	!	!	!	!	!	!	!
4AA/	X #	.	(4f\	.	4d/	.	4g/	.	4AA/	-ta	4f\	mun-	.	4d\	mun-	.	4a\	mun-	.	00r	.	.	.	.	.
4A\	8_ #_	.	4e\)	.	4c#X/	.	4a/	.	4A\	pec-	4e\	-di	.	4c#X\	-di	.	4a\	-di	.	.	.	.	.	.	.
4A\	.	.	4r	.	4r	.	4r	.	4A\	-ca-	4r	.	.	4r	.	.	4r	.	.	.	.	.	.	.	.
4A\	7n	.	4c#X/	.	4e/	.	4gn/	.	4A\	-ta	4c#X\	pec-	.	4e\	pec-	.	4gn/	pec-	.	.	.	.	.	.	.
=62	=62	=62	=62	=62	=62	=62	=62	=62	=62	=62	=62	=62	=62	=62	=62	=62	=62	=62	=62	=62	=62	=62	=62	=62	=62
1AA	6 4	.	2A/	.	2d/	.	2f/	.	1AA	mun-	2A/	-ca-	.	2d\	-ca-	.	2f/	-ca-	.	.	.	0r	.	0r	.
.	5 3	.	2A/	.	2c#X/	.	4e/	.	.	.	2A/	-ta	.	2c#X\	-ta	.	(<4e/	-ta	.	.	.	.	.	.	.
.	.	.	.	.	.	.	4a/	.	.	.	.	.	.	.	.	.	4a/)	.	.	.	.	.	.	.	.
=63	=63	=63	=63	=63	=63	=63	=63	=63	=63	=63	=63	=63	=63	=63	=63	=63	=63	=63	=63	=63	=63	=63	=63	=63	=63
!	!	!	!	!	!	!	!	!	!	!	!	!	!	!	!	!	!LO:SIC:l:s=mun-	!	!	!	!	!	!	!	!
2AA/	7 5	.	2A/	.	2e/	.	2g/	.	2AA/	.	2A\	mun-	.	2e\	mun-	.	2g/	mu-	.	.	.	.	.	.	.
2GG#X/	7 6	.	2Bn/	.	2d/	.	2f/	.	2GG#X/	.	2Bn\	.	.	2d\	.	.	2f/	.	.	.	.	.	.	.	.
!LO:LB:g=original	!	!	!	!	!	!	!	!	!	!	!	!	!	!	!	!	!	!	!	!	!	!	!	!	!
=64	=64	=64	=64	=64	=64	=64	=64	=64	=64	=64	=64	=64	=64	=64	=64	=64	=64	=64	=64	=64	=64	=64	=64	=64	=64
4AA/	5 #	.	4A/	.	4c#X/	.	4e/	.	2AA/	-di.	2A\	-di.	.	2c#X\	-di	.	2e/	-di.	.	.	.	1r	.	1r	.
8.r	.	.	8.r	.	8.r	.	8r	.	.	.	.	.	.	.	.	.	.	.	.	.	.	.	.	.	.
.	.	.	.	.	.	.	16r	.	.	.	.	.	.	.	.	.	.	.	.	.	.	.	.	.	.
!	!	!LO:DY:b:t=for&colon;	!	!	!	!	!	!LO:DY:a:t=ffor&colon;	!	!	!	!	!	!	!	!	!	!	!	!	!	!	!	!	!
16AA/	.	f	16A/	.	16A/	.	16A/	ff	.	.	.	.	.	.	.	.	.	.	.	.	.	.	.	.	.
4AA/	.	.	4A/	.	4A/	.	4A/	.	2r	.	2r	.	.	2r	.	.	2r	.	.	.	.	.	.	.	.
8.r	.	.	8.r	.	8.r	.	8r	.	.	.	.	.	.	.	.	.	.	.	.	.	.	.	.	.	.
.	.	.	.	.	.	.	16r	.	.	.	.	.	.	.	.	.	.	.	.	.	.	.	.	.	.
16AA/	.	.	16A/	.	16A/	.	16A/	.	.	.	.	.	.	.	.	.	.	.	.	.	.	.	.	.	.
=65	=65	=65	=65	=65	=65	=65	=65	=65	=65	=65	=65	=65	=65	=65	=65	=65	=65	=65	=65	=65	=65	=65	=65	=65	=65
!LO:TX:t=P:problem=pojedyncza kreska taktowa	!	!	!	!	!	!	!	!	!	!	!	!	!	!	!	!	!	!	!	!	!	!	!	!	!
!	!	!	!LO:TX:b:i:t=Dona V&colon; cito	!	!	!	!	!	!	!	!	!	!	!	!	!	!	!	!	!	!	!	!	!	!
1AA;	.	.	1A;	.	1A;	.	1A	.	1r	.	1r	.	.	1r;	.	.	1r	.	.	1r;	.	1r	.	1r;	.
!LO:TX:b:i:t=Sieqo Dona nobis	!	!	!	!	!	!	!	!	!	!	!	!	!	!	!	!	!	!	!	!	!	!	!	!	!
==	==	==	==	==	==	==	==	==	==	==	==	==	==	==	==	==	==	==	==	==	==	==	==	==	==
*-	*-	*-	*-	*-	*-	*-	*-	*-	*-	*-	*-	*-	*-	*-	*-	*-	*-	*-	*-	*-	*-	*-	*-	*-	*-
!!!system-decoration: [g1]s3[g2][g3]s11
!!!RDF**kern: > = above
!!!RDF**kern: < = below
!!!EED: Antoni Szymański
!!!EEV: 2021-01-09
!!!ENC: Tomasz Grochalski
!!!END: 2021-01-06
